(1001)
(T1  D=3.175 CR=0. - ZMIN=13.103 - FLAT END MILL)
G0 G90 G94 G17
G21
G53 G0 Z0.

(ADAPTIVE1)
M5
M9
T1
S16500 M3
G4 P4.
G55
G0 X31.572 Y31.294
Z53.
Z43.
Z40.5
G1 Z35. F51.
Y31.256 F1016.
X31.609 Y31.264
X31.626 Y31.297
X31.615 Y31.333
X31.585 Y31.355
X31.547 Y31.354
X31.514 Y31.337
X31.489 Y31.308
X31.477 Y31.273
X31.479 Y31.235
X31.496 Y31.202
X31.521 Y31.174
X31.554 Y31.155
X31.627 Y31.138
X31.699 Y31.157
X31.756 Y31.206
X31.79 Y31.273
X31.799 Y31.347
X31.781 Y31.42
X31.742 Y31.484
X31.685 Y31.533
X31.549 Y31.596
X31.399 Y31.583
X31.271 Y31.505
X31.184 Y31.383
X31.151 Y31.236
X31.17 Y31.088
X31.236 Y30.953
X31.342 Y30.846
X31.473 Y30.774
X31.619 Y30.742
X31.769 Y30.751
X31.911 Y30.799
X32.037 Y30.882
X32.137 Y30.993
X32.209 Y31.125
X32.249 Y31.269
X32.255 Y31.419
X32.227 Y31.567
X32.172 Y31.706
X32.09 Y31.832
X31.985 Y31.938
X31.861 Y32.024
X31.723 Y32.083
X31.577 Y32.117
X31.428 Y32.124
X31.279 Y32.104
X31.136 Y32.059
X31.003 Y31.99
X30.882 Y31.901
X30.779 Y31.792
X30.694 Y31.668
X30.629 Y31.533
X30.586 Y31.389
X30.565 Y31.241
X30.566 Y31.091
X30.589 Y30.943
X30.634 Y30.799
X30.697 Y30.663
X30.78 Y30.538
X30.878 Y30.425
X30.991 Y30.326
X31.116 Y30.243
X31.252 Y30.178
X31.394 Y30.13
X31.541 Y30.102
X31.691 Y30.092
X31.84 Y30.101
X31.988 Y30.128
X32.131 Y30.173
X32.268 Y30.235
X32.395 Y30.313
X32.514 Y30.406
X32.62 Y30.512
X32.713 Y30.629
X32.792 Y30.757
X32.857 Y30.892
X32.905 Y31.034
X32.938 Y31.18
X32.955 Y31.33
Y31.479
X32.94 Y31.629
X32.908 Y31.775
X32.862 Y31.918
X32.801 Y32.055
X32.726 Y32.185
X32.638 Y32.307
X32.539 Y32.419
X32.429 Y32.52
X32.309 Y32.611
X32.18 Y32.688
X32.045 Y32.754
X31.904 Y32.805
X31.759 Y32.843
X31.611 Y32.866
X31.461 Y32.876
X31.312 Y32.871
X31.163 Y32.852
X31.016 Y32.82
X30.873 Y32.774
X30.735 Y32.715
X30.603 Y32.644
X30.478 Y32.562
X30.361 Y32.468
X30.252 Y32.365
X30.153 Y32.252
X30.065 Y32.131
X29.986 Y32.003
X29.92 Y31.868
X29.865 Y31.729
X29.822 Y31.585
X29.792 Y31.438
X29.774 Y31.289
X29.768 Y31.139
X29.775 Y30.989
X29.794 Y30.841
X29.826 Y30.694
X29.869 Y30.55
X29.925 Y30.407
X29.99 Y30.272
X30.07 Y30.139
X30.158 Y30.014
X30.255 Y29.898
X30.365 Y29.786
X30.48 Y29.687
X30.608 Y29.593
X30.742 Y29.51
X30.88 Y29.44
X31.03 Y29.378
X31.18 Y29.329
X31.335 Y29.293
X31.498 Y29.268
X31.657 Y29.257
X31.82 Y29.258
X31.987 Y29.273
X32.146 Y29.301
X32.307 Y29.342
X32.468 Y29.397
X32.619 Y29.463
X32.766 Y29.542
X32.912 Y29.636
X33.046 Y29.738
X33.172 Y29.851
X33.292 Y29.979
X33.401 Y30.115
X33.498 Y30.257
X33.585 Y30.409
X33.661 Y30.572
X33.723 Y30.739
X33.77 Y30.908
X33.805 Y31.084
X33.826 Y31.267
X33.833 Y31.448
X33.825 Y31.628
X33.801 Y31.81
X33.763 Y31.993
X33.71 Y32.171
X33.644 Y32.344
X33.564 Y32.511
X33.469 Y32.675
X33.359 Y32.832
X33.238 Y32.979
X33.105 Y33.116
X32.963 Y33.242
X32.808 Y33.358
X32.642 Y33.462
X32.467 Y33.553
X32.287 Y33.629
X32.101 Y33.691
X31.911 Y33.737
X31.714 Y33.769
X31.514 Y33.785
X31.312 Y33.784
X31.11 Y33.768
X30.909 Y33.735
X30.712 Y33.686
X30.519 Y33.621
X30.331 Y33.541
X30.148 Y33.445
X29.972 Y33.334
X29.804 Y33.208
X29.646 Y33.068
X29.5 Y32.916
X29.365 Y32.751
X29.244 Y32.576
X29.136 Y32.391
X29.044 Y32.196
X28.967 Y31.995
X28.906 Y31.786
X28.862 Y31.573
X28.835 Y31.356
X28.826 Y31.136
X28.834 Y30.915
X28.86 Y30.694
X28.904 Y30.475
X28.966 Y30.26
X29.045 Y30.048
X29.142 Y29.843
X29.255 Y29.645
X29.384 Y29.457
X29.528 Y29.278
X29.687 Y29.111
X29.86 Y28.956
X30.045 Y28.816
X30.243 Y28.689
X30.45 Y28.579
X30.666 Y28.486
X30.89 Y28.409
X31.121 Y28.351
X31.356 Y28.311
X31.595 Y28.29
X31.836 Y28.289
X32.077 Y28.306
X32.317 Y28.344
X32.554 Y28.4
X32.787 Y28.476
X33.014 Y28.571
X33.234 Y28.684
X33.444 Y28.814
X33.645 Y28.962
X33.833 Y29.127
X34.009 Y29.307
X34.171 Y29.5
X34.316 Y29.708
X34.446 Y29.927
X34.558 Y30.157
X34.651 Y30.396
X34.725 Y30.643
X34.78 Y30.896
X34.814 Y31.154
X34.827 Y31.415
X34.82 Y31.676
X34.791 Y31.938
X34.741 Y32.197
X34.67 Y32.453
X34.578 Y32.704
X34.467 Y32.947
X34.336 Y33.18
X34.185 Y33.404
X34.017 Y33.616
X33.831 Y33.814
X33.629 Y33.998
X33.412 Y34.165
X33.182 Y34.315
X32.94 Y34.447
X32.687 Y34.559
X32.425 Y34.65
X32.154 Y34.721
X31.878 Y34.77
X31.598 Y34.797
X31.316 Y34.801
X31.034 Y34.783
X30.753 Y34.742
X30.475 Y34.678
X30.201 Y34.591
X29.935 Y34.483
X29.677 Y34.353
X29.429 Y34.202
X29.193 Y34.03
X28.971 Y33.84
X28.765 Y33.632
X28.575 Y33.408
X28.403 Y33.168
X28.25 Y32.914
X28.118 Y32.647
X28.007 Y32.37
X27.918 Y32.084
X27.852 Y31.79
X27.81 Y31.491
X27.792 Y31.189
X27.799 Y30.885
X27.83 Y30.581
X27.885 Y30.28
X27.965 Y29.982
X28.068 Y29.692
X28.196 Y29.409
X28.345 Y29.137
X28.517 Y28.876
X28.71 Y28.63
X28.923 Y28.398
X29.155 Y28.184
X29.404 Y27.989
X29.668 Y27.813
X29.947 Y27.659
X30.238 Y27.527
X30.54 Y27.419
X30.851 Y27.335
X31.169 Y27.275
X31.491 Y27.242
X31.816 Y27.234
X32.142 Y27.253
X32.466 Y27.298
X32.786 Y27.369
X33.101 Y27.466
X33.408 Y27.588
X33.706 Y27.735
X33.992 Y27.906
X34.263 Y28.099
X34.52 Y28.315
X34.759 Y28.552
X34.979 Y28.808
X35.178 Y29.081
X35.356 Y29.371
X35.51 Y29.675
X35.639 Y29.991
X35.744 Y30.318
X35.822 Y30.654
X35.872 Y30.995
X35.896 Y31.341
X35.891 Y31.688
X35.859 Y32.036
X35.798 Y32.38
X35.71 Y32.72
X35.595 Y33.053
X35.453 Y33.376
X35.284 Y33.688
X35.091 Y33.986
X34.873 Y34.269
X34.633 Y34.534
X34.372 Y34.78
X34.091 Y35.005
X33.791 Y35.207
X33.476 Y35.385
X33.146 Y35.537
X32.804 Y35.663
X32.452 Y35.762
X32.092 Y35.832
X31.726 Y35.873
X31.358 Y35.884
X30.988 Y35.866
X30.62 Y35.819
X30.256 Y35.741
X29.898 Y35.634
X29.548 Y35.499
X29.21 Y35.335
X28.885 Y35.144
X28.575 Y34.927
X28.283 Y34.685
X28.011 Y34.42
X27.759 Y34.133
X27.531 Y33.825
X27.328 Y33.5
X27.152 Y33.158
X27.002 Y32.802
X26.882 Y32.434
X26.791 Y32.056
X26.73 Y31.672
X26.701 Y31.282
X26.702 Y30.89
X26.736 Y30.499
X26.801 Y30.11
X26.897 Y29.726
X27.024 Y29.35
X27.181 Y28.985
X27.367 Y28.632
X27.582 Y28.295
X27.824 Y27.975
X28.092 Y27.674
X28.384 Y27.396
X28.698 Y27.14
X29.032 Y26.911
X29.385 Y26.708
X29.754 Y26.533
X30.137 Y26.389
X30.531 Y26.275
X30.934 Y26.193
X31.344 Y26.144
X31.757 Y26.127
X32.172 Y26.144
X32.585 Y26.194
X32.994 Y26.278
X33.395 Y26.394
X33.788 Y26.543
X34.168 Y26.723
X34.533 Y26.933
X34.882 Y27.173
X35.211 Y27.441
X35.518 Y27.735
X35.801 Y28.054
X36.059 Y28.396
X36.289 Y28.758
X36.49 Y29.138
X36.66 Y29.535
X36.798 Y29.944
X36.903 Y30.365
X36.974 Y30.794
X37.011 Y31.229
X37.013 Y31.666
X36.979 Y32.103
X36.91 Y32.537
X36.807 Y32.966
X36.668 Y33.385
X36.497 Y33.794
X36.292 Y34.188
X36.056 Y34.566
X35.79 Y34.924
X35.495 Y35.261
X35.173 Y35.574
X34.826 Y35.861
X34.456 Y36.119
X34.066 Y36.348
X33.657 Y36.545
X33.233 Y36.709
X32.796 Y36.839
X32.349 Y36.934
X31.895 Y36.992
X31.436 Y37.014
X30.976 Y36.999
X30.517 Y36.947
X30.063 Y36.859
X29.616 Y36.733
X29.179 Y36.572
X28.756 Y36.376
X28.349 Y36.146
X27.961 Y35.883
X27.594 Y35.589
X27.251 Y35.266
X26.934 Y34.916
X26.646 Y34.54
X26.388 Y34.142
X26.163 Y33.723
X25.971 Y33.286
X25.815 Y32.834
X25.695 Y32.37
X25.612 Y31.897
X25.568 Y31.417
X25.562 Y30.934
X25.595 Y30.451
X25.667 Y29.971
X25.778 Y29.497
X25.926 Y29.032
X26.112 Y28.58
X26.334 Y28.143
X26.591 Y27.724
X26.882 Y27.326
X27.204 Y26.952
X27.556 Y26.605
X27.936 Y26.285
X28.341 Y25.997
X28.769 Y25.741
X29.217 Y25.521
X29.683 Y25.336
X30.163 Y25.189
X30.654 Y25.081
X31.154 Y25.012
X31.658 Y24.984
X32.165 Y24.996
X32.67 Y25.049
X33.17 Y25.143
X33.662 Y25.276
X34.143 Y25.45
X34.61 Y25.661
X35.059 Y25.91
X35.488 Y26.195
X35.894 Y26.515
X36.273 Y26.866
X36.624 Y27.248
X36.944 Y27.658
X37.23 Y28.093
X37.482 Y28.551
X37.696 Y29.028
X37.872 Y29.522
X38.007 Y30.03
X38.102 Y30.549
X38.155 Y31.074
X38.166 Y31.604
X38.134 Y32.133
X38.059 Y32.66
X37.943 Y33.18
X37.784 Y33.69
X37.585 Y34.187
X37.345 Y34.667
X37.068 Y35.128
X36.754 Y35.566
X36.404 Y35.978
X36.022 Y36.362
X35.61 Y36.714
X35.169 Y37.033
X34.704 Y37.316
X34.216 Y37.562
X33.709 Y37.768
X33.186 Y37.932
X32.65 Y38.055
X32.105 Y38.135
X31.554 Y38.17
X31.001 Y38.161
X30.449 Y38.108
X29.902 Y38.01
X29.363 Y37.869
X28.836 Y37.684
X28.325 Y37.457
X27.833 Y37.189
X27.362 Y36.882
X26.917 Y36.538
X26.5 Y36.158
X26.114 Y35.745
X25.762 Y35.301
X25.446 Y34.829
X25.168 Y34.333
X24.93 Y33.815
X24.735 Y33.278
X24.582 Y32.726
X24.475 Y32.163
X24.412 Y31.591
X24.396 Y31.015
X24.426 Y30.438
X24.502 Y29.864
X24.625 Y29.298
X24.793 Y28.741
X25.005 Y28.199
X25.261 Y27.674
X25.559 Y27.171
X25.897 Y26.692
X26.272 Y26.241
X26.684 Y25.821
X27.129 Y25.434
X27.605 Y25.083
X28.108 Y24.771
X28.636 Y24.5
X29.185 Y24.272
X29.752 Y24.089
X30.332 Y23.951
X30.923 Y23.86
X31.521 Y23.816
X32.121 Y23.821
X32.721 Y23.874
X33.315 Y23.975
X33.9 Y24.123
X34.473 Y24.319
X35.029 Y24.56
X35.566 Y24.846
X36.078 Y25.175
X36.564 Y25.545
X37.019 Y25.953
X37.441 Y26.397
X37.827 Y26.874
X38.173 Y27.383
X38.479 Y27.918
X38.741 Y28.477
X38.958 Y29.057
X39.128 Y29.653
X39.249 Y30.262
X39.322 Y30.881
X39.345 Y31.504
X39.317 Y32.128
X39.24 Y32.75
X39.112 Y33.364
X38.936 Y33.967
X38.711 Y34.556
X38.439 Y35.125
X38.122 Y35.672
X37.761 Y36.193
X37.358 Y36.684
X36.917 Y37.142
X36.439 Y37.564
X35.928 Y37.946
X35.388 Y38.288
X34.82 Y38.585
X34.229 Y38.836
X33.619 Y39.04
X32.993 Y39.194
X32.356 Y39.298
X31.711 Y39.35
X31.063
X30.415 Y39.298
X29.773 Y39.195
X29.14 Y39.039
X28.52 Y38.833
X27.918 Y38.578
X27.337 Y38.274
X26.781 Y37.924
X26.254 Y37.53
X25.76 Y37.094
X25.301 Y36.619
X24.881 Y36.108
X24.503 Y35.563
X24.169 Y34.989
X23.882 Y34.389
X23.643 Y33.767
X23.455 Y33.126
X23.318 Y32.471
X23.235 Y31.806
X23.204 Y31.135
X23.228 Y30.462
X23.306 Y29.793
X23.438 Y29.13
X23.623 Y28.479
X23.86 Y27.844
X24.147 Y27.229
X24.484 Y26.638
X24.868 Y26.075
X25.296 Y25.543
X25.767 Y25.047
X26.277 Y24.589
X26.822 Y24.172
X27.401 Y23.801
X28.009 Y23.476
X28.641 Y23.201
X29.295 Y22.977
X29.966 Y22.805
X30.65 Y22.689
X31.342 Y22.627
X32.038 Y22.621
X32.734 Y22.671
X33.425 Y22.776
X34.106 Y22.937
X34.773 Y23.153
X35.421 Y23.422
X36.048 Y23.743
X36.647 Y24.113
X37.216 Y24.532
X37.75 Y24.995
X38.246 Y25.501
X38.701 Y26.045
X39.112 Y26.626
X39.475 Y27.239
X39.788 Y27.88
X40.05 Y28.545
X40.257 Y29.23
X40.409 Y29.931
X40.505 Y30.644
X40.543 Y31.362
X40.523 Y32.083
X40.446 Y32.801
X40.31 Y33.512
X40.118 Y34.211
X39.87 Y34.893
X39.568 Y35.554
X39.212 Y36.19
X38.806 Y36.797
X38.353 Y37.369
X37.853 Y37.905
X37.312 Y38.399
X36.731 Y38.85
X36.115 Y39.252
X35.468 Y39.605
X34.794 Y39.905
X34.098 Y40.15
X33.385 Y40.338
X32.659 Y40.469
X31.924 Y40.541
X31.187 Y40.555
X30.45 Y40.51
X29.72 Y40.407
X29. Y40.246
X28.295 Y40.028
X27.609 Y39.756
X26.947 Y39.43
X26.313 Y39.054
X25.71 Y38.628
X25.142 Y38.157
X24.613 Y37.642
X24.126 Y37.088
X23.684 Y36.498
X23.289 Y35.874
X22.944 Y35.222
X22.65 Y34.545
X22.41 Y33.848
X22.225 Y33.134
X22.095 Y32.407
X22.022 Y31.673
X22.005 Y30.935
X22.045 Y30.199
X22.142 Y29.467
X22.294 Y28.745
X22.501 Y28.037
X22.762 Y27.347
X23.074 Y26.679
X23.438 Y26.036
X23.85 Y25.424
X24.307 Y24.845
X24.807 Y24.303
X25.347 Y23.8
X25.923 Y23.339
X26.532 Y22.923
X27.171 Y22.554
X27.836 Y22.234
X28.523 Y21.965
X29.228 Y21.748
X29.948 Y21.584
X30.677 Y21.474
X31.413 Y21.419
X32.151 Y21.418
X32.886 Y21.473
X33.616 Y21.584
X34.335 Y21.75
X35.04 Y21.969
X35.726 Y22.239
X36.39 Y22.56
X37.03 Y22.928
X37.64 Y23.343
X38.218 Y23.801
X38.762 Y24.3
X39.267 Y24.837
X39.732 Y25.41
X40.154 Y26.015
X40.53 Y26.651
X40.857 Y27.312
X41.134 Y27.996
X41.361 Y28.698
X41.536 Y29.415
X41.659 Y30.142
X41.729 Y30.877
X41.746 Y31.614
X41.711 Y32.351
X41.623 Y33.084
X41.482 Y33.808
X41.287 Y34.52
X41.041 Y35.215
X40.745 Y35.891
X40.402 Y36.544
X40.013 Y37.171
X39.581 Y37.769
X39.107 Y38.335
X38.595 Y38.866
X38.047 Y39.36
X37.464 Y39.812
X36.849 Y40.22
X36.207 Y40.583
X35.54 Y40.899
X34.853 Y41.169
X34.149 Y41.39
X33.432 Y41.561
X32.704 Y41.682
X31.969 Y41.75
X31.232 Y41.765
X30.495 Y41.727
X29.762 Y41.637
X29.038 Y41.497
X28.325 Y41.307
X27.627 Y41.068
X26.947 Y40.781
X26.289 Y40.449
X25.655 Y40.07
X25.051 Y39.646
X24.478 Y39.182
X23.939 Y38.678
X23.435 Y38.139
X22.969 Y37.567
X22.544 Y36.964
X22.16 Y36.334
X21.821 Y35.679
X21.529 Y35.001
X21.285 Y34.305
X21.09 Y33.593
X20.945 Y32.87
X20.849 Y32.138
X20.802 Y31.402
X20.805 Y30.664
X20.857 Y29.928
X20.96 Y29.197
X21.113 Y28.476
X21.316 Y27.766
X21.567 Y27.073
X21.865 Y26.398
X22.208 Y25.745
X22.594 Y25.116
X23.022 Y24.514
X23.489 Y23.943
X23.993 Y23.404
X24.533 Y22.902
X25.106 Y22.438
X25.71 Y22.013
X26.341 Y21.631
X26.995 Y21.29
X27.671 Y20.994
X28.365 Y20.743
X29.074 Y20.537
X29.794 Y20.379
X30.524 Y20.271
X31.26 Y20.212
X31.997 Y20.203
X32.734 Y20.243
X33.466 Y20.333
X34.191 Y20.47
X34.906 Y20.655
X35.606 Y20.887
X36.29 Y21.163
X36.954 Y21.485
X37.594 Y21.852
X38.209 Y22.26
X38.796 Y22.707
X39.352 Y23.191
X39.877 Y23.71
X40.366 Y24.262
X40.82 Y24.844
X41.234 Y25.455
X41.607 Y26.092
X41.935 Y26.753
X42.218 Y27.434
X42.456 Y28.132
X42.649 Y28.844
X42.795 Y29.567
X42.896 Y30.298
X42.949 Y31.034
X42.956 Y31.772
X42.916 Y32.509
X42.828 Y33.241
X42.69 Y33.966
X42.504 Y34.68
X42.273 Y35.381
X41.997 Y36.065
X41.678 Y36.731
X41.319 Y37.375
X40.919 Y37.995
X40.481 Y38.589
X40.006 Y39.154
X39.495 Y39.686
X38.951 Y40.184
X38.375 Y40.645
X37.771 Y41.068
X37.141 Y41.453
X36.488 Y41.797
X35.815 Y42.099
X35.125 Y42.359
X34.42 Y42.576
X33.702 Y42.747
X32.974 Y42.871
X32.241 Y42.948
X31.503 Y42.977
X30.766 Y42.96
X30.031 Y42.897
X29.301 Y42.788
X28.579 Y42.635
X27.868 Y42.437
X27.171 Y42.196
X26.491 Y41.91
X25.83 Y41.582
X25.192 Y41.212
X24.578 Y40.802
X23.991 Y40.355
X23.433 Y39.873
X22.905 Y39.357
X22.41 Y38.81
X21.949 Y38.234
X21.525 Y37.63
X21.14 Y37.001
X20.795 Y36.348
X20.493 Y35.675
X20.232 Y34.985
X20.015 Y34.28
X19.841 Y33.563
X19.711 Y32.837
X19.625 Y32.104
X19.584 Y31.367
X19.587 Y30.629
X19.638 Y29.893
X19.734 Y29.162
X19.875 Y28.438
X20.06 Y27.724
X20.289 Y27.022
X20.56 Y26.336
X20.872 Y25.667
X21.224 Y25.019
X21.614 Y24.392
X22.042 Y23.791
X22.506 Y23.218
X23.005 Y22.674
X23.537 Y22.163
X24.099 Y21.685
X24.688 Y21.241
X25.303 Y20.834
X25.942 Y20.463
X26.601 Y20.132
X27.278 Y19.839
X27.972 Y19.589
X28.68 Y19.381
X29.399 Y19.217
X30.127 Y19.096
X30.861 Y19.02
X31.598 Y18.988
X32.336 Y19.
X33.072 Y19.056
X33.803 Y19.155
X34.527 Y19.297
X35.241 Y19.483
X35.942 Y19.712
X36.628 Y19.983
X37.297 Y20.295
X37.946 Y20.647
X38.572 Y21.036
X39.175 Y21.461
X39.752 Y21.921
X40.302 Y22.413
X40.822 Y22.937
X41.31 Y23.49
X41.765 Y24.071
X42.183 Y24.679
X42.564 Y25.311
X42.906 Y25.965
X43.208 Y26.637
X43.471 Y27.327
X43.693 Y28.03
X43.874 Y28.746
X44.014 Y29.47
X44.112 Y30.201
X44.167 Y30.937
X44.178 Y31.675
X44.145 Y32.412
X44.069 Y33.146
X43.95 Y33.874
X43.788 Y34.594
X43.584 Y35.303
X43.34 Y35.999
X43.056 Y36.68
X42.734 Y37.344
X42.374 Y37.988
X41.977 Y38.61
X41.544 Y39.207
X41.077 Y39.779
X40.578 Y40.322
X40.048 Y40.835
X39.489 Y41.317
X38.904 Y41.766
X38.293 Y42.18
X37.66 Y42.559
X37.007 Y42.902
X36.334 Y43.206
X35.646 Y43.47
X34.943 Y43.695
X34.228 Y43.878
X33.504 Y44.02
X32.773 Y44.12
X32.038 Y44.178
X31.3 Y44.194
X30.563 Y44.169
X29.828 Y44.102
X29.098 Y43.993
X28.376 Y43.842
X27.663 Y43.65
X26.963 Y43.418
X26.277 Y43.146
X25.608 Y42.836
X24.957 Y42.488
X24.327 Y42.104
X23.72 Y41.685
X23.137 Y41.232
X22.58 Y40.748
X22.052 Y40.233
X21.555 Y39.688
X21.088 Y39.116
X20.655 Y38.519
X20.256 Y37.899
X19.892 Y37.257
X19.566 Y36.595
X19.277 Y35.916
X19.026 Y35.222
X18.814 Y34.516
X18.642 Y33.798
X18.511 Y33.072
X18.42 Y32.34
X18.371 Y31.604
X18.362 Y30.866
X18.395 Y30.129
X18.469 Y29.395
X18.584 Y28.666
X18.739 Y27.945
X18.934 Y27.233
X19.168 Y26.533
X19.44 Y25.847
X19.75 Y25.178
X20.097 Y24.527
X20.48 Y23.896
X20.898 Y23.288
X21.348 Y22.703
X21.83 Y22.145
X22.343 Y21.614
X22.884 Y21.112
X23.451 Y20.641
X24.043 Y20.201
X24.659 Y19.794
X25.296 Y19.422
X25.953 Y19.086
X26.627 Y18.786
X27.316 Y18.523
X28.019 Y18.299
X28.733 Y18.113
X29.457 Y17.967
X30.187 Y17.86
X30.921 Y17.793
X31.659 Y17.765
X32.396 Y17.778
X33.132 Y17.833
X33.864 Y17.927
X34.589 Y18.061
X35.307 Y18.235
X36.013 Y18.447
X36.707 Y18.698
X37.386 Y18.986
X38.049 Y19.31
X38.693 Y19.67
X39.317 Y20.063
X39.92 Y20.49
X40.498 Y20.948
X41.05 Y21.437
X41.575 Y21.955
X42.072 Y22.501
X42.539 Y23.072
X42.974 Y23.668
X43.376 Y24.287
X43.744 Y24.926
X44.077 Y25.585
X44.375 Y26.26
X44.636 Y26.95
X44.859 Y27.653
X45.044 Y28.367
X45.19 Y29.091
X45.298 Y29.82
X45.368 Y30.555
X45.398 Y31.292
X45.388 Y32.03
X45.34 Y32.766
X45.252 Y33.499
X45.126 Y34.226
X44.961 Y34.945
X44.757 Y35.654
X44.516 Y36.351
X44.238 Y37.035
X43.924 Y37.702
X43.575 Y38.353
X43.193 Y38.984
X42.778 Y39.594
X42.331 Y40.181
X41.854 Y40.744
X41.349 Y41.281
X40.815 Y41.791
X40.256 Y42.272
X39.671 Y42.722
X39.063 Y43.14
X38.434 Y43.526
X37.786 Y43.878
X37.12 Y44.196
X36.439 Y44.479
X35.744 Y44.726
X35.036 Y44.936
X34.319 Y45.109
X33.594 Y45.244
X32.863 Y45.342
X32.127 Y45.4
X31.389 Y45.419
X30.652 Y45.4
X29.916 Y45.342
X29.185 Y45.246
X28.459 Y45.112
X27.741 Y44.941
X27.034 Y44.733
X26.337 Y44.489
X25.655 Y44.209
X24.987 Y43.894
X24.337 Y43.545
X23.707 Y43.162
X23.097 Y42.746
X22.51 Y42.3
X21.947 Y41.823
X21.408 Y41.319
X20.897 Y40.787
X20.413 Y40.23
X19.959 Y39.649
X19.535 Y39.045
X19.142 Y38.42
X18.782 Y37.776
X18.456 Y37.114
X18.165 Y36.436
X17.909 Y35.744
X17.689 Y35.04
X17.506 Y34.325
X17.359 Y33.602
X17.249 Y32.873
X17.177 Y32.138
X17.141 Y31.401
X17.144 Y30.664
X17.183 Y29.927
X17.26 Y29.193
X17.375 Y28.464
X17.527 Y27.742
X17.717 Y27.029
X17.942 Y26.327
X18.203 Y25.636
X18.498 Y24.96
X18.827 Y24.3
X19.19 Y23.657
X19.584 Y23.034
X20.009 Y22.431
X20.464 Y21.85
X20.948 Y21.293
X21.46 Y20.762
X21.999 Y20.258
X22.563 Y19.782
X23.149 Y19.334
X23.758 Y18.917
X24.387 Y18.531
X25.034 Y18.177
X25.698 Y17.855
X26.377 Y17.567
X27.07 Y17.313
X27.775 Y17.094
X28.489 Y16.911
X29.212 Y16.764
X29.942 Y16.654
X30.676 Y16.581
X31.413 Y16.545
X32.151
X32.888 Y16.583
X33.622 Y16.658
X34.351 Y16.768
X35.074 Y16.915
X35.789 Y17.098
X36.494 Y17.316
X37.187 Y17.569
X37.866 Y17.856
X38.53 Y18.178
X39.178 Y18.533
X39.806 Y18.918
X40.415 Y19.335
X41.003 Y19.781
X41.568 Y20.255
X42.109 Y20.757
X42.625 Y21.284
X43.115 Y21.836
X43.577 Y22.412
X44.009 Y23.009
X44.412 Y23.628
X44.782 Y24.266
X45.119 Y24.922
X45.425 Y25.594
X45.696 Y26.28
X45.934 Y26.978
X46.137 Y27.688
X46.305 Y28.406
X46.438 Y29.132
X46.536 Y29.863
X46.599 Y30.598
X46.625 Y31.335
X46.615 Y32.073
X46.569 Y32.81
X46.485 Y33.543
X46.366 Y34.271
X46.211 Y34.992
X46.021 Y35.705
X45.797 Y36.408
X45.538 Y37.099
X45.247 Y37.777
X44.923 Y38.44
X44.567 Y39.086
X44.181 Y39.715
X43.765 Y40.324
X43.319 Y40.912
X42.845 Y41.477
X42.344 Y42.019
X41.817 Y42.535
X41.265 Y43.025
X40.691 Y43.488
X40.094 Y43.923
X39.478 Y44.328
X38.843 Y44.703
X38.19 Y45.047
X37.522 Y45.36
X36.839 Y45.641
X36.144 Y45.887
X35.438 Y46.1
X34.721 Y46.278
X33.998 Y46.421
X33.268 Y46.529
X32.534 Y46.602
X31.797 Y46.639
X31.059 Y46.641
X30.322 Y46.607
X29.587 Y46.539
X28.857 Y46.436
X28.132 Y46.298
X27.414 Y46.126
X26.706 Y45.919
X26.009 Y45.678
X25.324 Y45.403
X24.653 Y45.097
X23.997 Y44.759
X23.358 Y44.389
X22.738 Y43.99
X22.137 Y43.561
X21.558 Y43.105
X21. Y42.621
X20.466 Y42.112
X19.956 Y41.579
X19.473 Y41.022
X19.017 Y40.442
X18.589 Y39.84
X18.19 Y39.22
X17.822 Y38.581
X17.483 Y37.925
X17.177 Y37.254
X16.902 Y36.569
X16.66 Y35.872
X16.452 Y35.164
X16.276 Y34.448
X16.134 Y33.724
X16.026 Y32.994
X15.953 Y32.26
X15.915 Y31.523
X15.912 Y30.785
X15.943 Y30.048
X16.01 Y29.313
X16.11 Y28.582
X16.246 Y27.857
X16.415 Y27.139
X16.617 Y26.429
X16.852 Y25.73
X17.12 Y25.042
X17.419 Y24.368
X17.75 Y23.708
X18.111 Y23.065
X18.503 Y22.44
X18.923 Y21.834
X19.372 Y21.248
X19.847 Y20.683
X20.349 Y20.142
X20.875 Y19.625
X21.424 Y19.133
X21.996 Y18.666
X22.589 Y18.227
X23.201 Y17.815
X23.832 Y17.432
X24.479 Y17.079
X25.143 Y16.756
X25.821 Y16.465
X26.512 Y16.206
X27.214 Y15.979
X27.925 Y15.784
X28.645 Y15.623
X29.372 Y15.495
X30.104 Y15.401
X30.839 Y15.341
X31.576 Y15.314
X32.314 Y15.322
X33.051 Y15.363
X33.785 Y15.438
X34.515 Y15.548
X35.238 Y15.692
X35.954 Y15.869
X36.662 Y16.078
X37.359 Y16.32
X38.044 Y16.594
X38.716 Y16.9
X39.373 Y17.236
X40.014 Y17.601
X40.637 Y17.995
X41.242 Y18.417
X41.828 Y18.866
X42.392 Y19.341
X42.934 Y19.842
X43.452 Y20.367
X43.946 Y20.916
X44.414 Y21.486
X44.856 Y22.077
X45.269 Y22.688
X45.655 Y23.317
X46.011 Y23.963
X46.337 Y24.625
X46.633 Y25.301
X46.898 Y25.99
X47.132 Y26.689
X47.334 Y27.399
X47.503 Y28.117
X47.638 Y28.842
X47.741 Y29.573
X47.811 Y30.308
X47.848 Y31.044
X47.852 Y31.782
X47.821 Y32.519
X47.757 Y33.255
X47.661 Y33.986
X47.531 Y34.712
X47.368 Y35.432
X47.174 Y36.144
X46.947 Y36.846
X46.689 Y37.537
X46.4 Y38.216
X46.08 Y38.881
X45.73 Y39.53
X45.352 Y40.164
X44.946 Y40.78
X44.513 Y41.377
X44.053 Y41.954
X43.568 Y42.51
X43.058 Y43.043
X42.525 Y43.553
X41.97 Y44.039
X41.393 Y44.5
X40.797 Y44.934
X40.181 Y45.341
X39.548 Y45.719
X38.898 Y46.068
X38.233 Y46.389
X37.555 Y46.68
X36.865 Y46.94
X36.163 Y47.168
X35.452 Y47.366
X34.733 Y47.531
X34.008 Y47.665
X33.277 Y47.766
X32.542 Y47.834
X31.805 Y47.87
X31.067 Y47.873
X30.33 Y47.842
X29.595 Y47.778
X28.864 Y47.682
X28.137 Y47.554
X27.417 Y47.394
X26.704 Y47.202
X26.001 Y46.979
X25.309 Y46.725
X24.628 Y46.44
X23.96 Y46.126
X23.307 Y45.783
X22.67 Y45.411
X22.05 Y45.011
X21.448 Y44.584
X20.866 Y44.13
X20.305 Y43.652
X19.765 Y43.149
X19.248 Y42.623
X18.754 Y42.075
X18.285 Y41.505
X17.841 Y40.915
X17.424 Y40.307
X17.033 Y39.681
X16.671 Y39.038
X16.337 Y38.38
X16.032 Y37.709
X15.757 Y37.024
X15.513 Y36.328
X15.3 Y35.621
X15.118 Y34.906
X14.967 Y34.184
X14.847 Y33.456
X14.759 Y32.723
X14.704 Y31.988
X14.681 Y31.25
X14.689 Y30.512
X14.73 Y29.776
X14.803 Y29.042
X14.907 Y28.311
X15.043 Y27.586
X15.212 Y26.868
X15.411 Y26.157
X15.642 Y25.457
X15.903 Y24.766
X16.193 Y24.088
X16.513 Y23.423
X16.861 Y22.772
X17.237 Y22.138
X17.64 Y21.52
X18.07 Y20.92
X18.525 Y20.339
X19.005 Y19.779
X19.508 Y19.24
X20.035 Y18.723
X20.584 Y18.23
X21.153 Y17.761
X21.743 Y17.317
X22.351 Y16.899
X22.976 Y16.508
X23.618 Y16.143
X24.274 Y15.807
X24.945 Y15.499
X25.628 Y15.22
X26.322 Y14.971
X27.027 Y14.751
X27.74 Y14.562
X28.461 Y14.403
X29.187 Y14.276
X29.919 Y14.181
X30.654 Y14.117
X31.391 Y14.085
X32.129
X32.866 Y14.116
X33.601 Y14.179
X34.333 Y14.273
X35.06 Y14.399
X35.781 Y14.555
X36.495 Y14.742
X37.2 Y14.96
X37.895 Y15.207
X38.579 Y15.483
X39.251 Y15.789
X39.908 Y16.123
X40.551 Y16.486
X41.177 Y16.876
X41.787 Y17.291
X42.379 Y17.732
X42.951 Y18.198
X43.503 Y18.687
X44.034 Y19.2
X44.543 Y19.734
X45.028 Y20.289
X45.49 Y20.865
X45.927 Y21.459
X46.338 Y22.072
X46.723 Y22.701
X47.08 Y23.347
X47.409 Y24.007
X47.71 Y24.681
X47.982 Y25.367
X48.225 Y26.064
X48.438 Y26.77
X48.622 Y27.485
X48.775 Y28.206
X48.898 Y28.934
X48.99 Y29.666
X49.052 Y30.401
X49.082 Y31.138
Y31.876
X49.051 Y32.613
X48.988 Y33.348
X48.894 Y34.08
X48.769 Y34.807
X48.613 Y35.528
X48.427 Y36.243
X48.212 Y36.948
X47.967 Y37.644
X47.693 Y38.329
X47.391 Y39.002
X47.061 Y39.662
X46.704 Y40.308
X46.32 Y40.938
X45.911 Y41.552
X45.476 Y42.148
X45.017 Y42.725
X44.533 Y43.282
X44.026 Y43.819
X43.497 Y44.333
X42.948 Y44.825
X42.378 Y45.294
X41.789 Y45.739
X41.183 Y46.159
X40.559 Y46.553
X39.919 Y46.921
X39.265 Y47.262
X38.597 Y47.576
X37.917 Y47.862
X37.226 Y48.12
X36.524 Y48.348
X35.814 Y48.547
X35.096 Y48.716
X34.371 Y48.854
X33.641 Y48.963
X32.908 Y49.041
X32.171 Y49.089
X31.434 Y49.107
X30.696 Y49.093
X29.959 Y49.049
X29.225 Y48.975
X28.495 Y48.871
X27.769 Y48.737
X27.05 Y48.574
X26.338 Y48.381
X25.634 Y48.158
X24.941 Y47.906
X24.259 Y47.626
X23.588 Y47.317
X22.931 Y46.981
X22.289 Y46.619
X21.661 Y46.231
X21.051 Y45.817
X20.457 Y45.378
X19.883 Y44.915
X19.328 Y44.429
X18.792 Y43.921
X18.278 Y43.392
X17.787 Y42.842
X17.318 Y42.272
X16.873 Y41.684
X16.453 Y41.077
X16.058 Y40.454
X15.689 Y39.815
X15.347 Y39.161
X15.031 Y38.494
X14.743 Y37.815
X14.483 Y37.124
X14.252 Y36.424
X14.049 Y35.715
X13.875 Y34.998
X13.73 Y34.274
X13.614 Y33.545
X13.528 Y32.813
X13.472 Y32.077
X13.447 Y31.34
X13.452 Y30.602
X13.487 Y29.865
X13.552 Y29.13
X13.646 Y28.398
X13.77 Y27.671
X13.924 Y26.949
X14.106 Y26.234
X14.318 Y25.527
X14.558 Y24.83
X14.826 Y24.142
X15.121 Y23.466
X15.444 Y22.803
X15.793 Y22.153
X16.168 Y21.517
X16.57 Y20.898
X16.996 Y20.296
X17.446 Y19.711
X17.919 Y19.145
X18.415 Y18.599
X18.932 Y18.073
X19.471 Y17.568
X20.029 Y17.086
X20.606 Y16.626
X21.201 Y16.19
X21.813 Y15.778
X22.441 Y15.391
X23.084 Y15.029
X23.741 Y14.693
X24.411 Y14.384
X25.093 Y14.103
X25.786 Y13.849
X26.488 Y13.623
X27.199 Y13.426
X27.917 Y13.257
X28.642 Y13.117
X29.371 Y13.006
X30.105 Y12.924
X30.841 Y12.872
X31.578 Y12.849
X32.316 Y12.856
X33.053 Y12.892
X33.788 Y12.957
X34.519 Y13.052
X35.247 Y13.176
X35.968 Y13.33
X36.683 Y13.513
X37.39 Y13.724
X38.088 Y13.962
X38.776 Y14.229
X39.453 Y14.522
X40.118 Y14.843
X40.769 Y15.19
X41.406 Y15.562
X42.028 Y15.959
X42.633 Y16.38
X43.222 Y16.825
X43.793 Y17.293
X44.345 Y17.782
X44.876 Y18.294
X45.387 Y18.827
X45.876 Y19.379
X46.343 Y19.951
X46.787 Y20.54
X47.207 Y21.146
X47.603 Y21.769
X47.973 Y22.407
X48.318 Y23.059
X48.637 Y23.725
X48.929 Y24.402
X49.195 Y25.091
X49.433 Y25.789
X49.644 Y26.496
X49.827 Y27.211
X49.981 Y27.932
X50.106 Y28.659
X50.203 Y29.391
X50.271 Y30.125
X50.31 Y30.862
X50.32 Y31.6
X50.301 Y32.338
X50.253 Y33.074
X50.176 Y33.808
X50.07 Y34.538
X49.935 Y35.263
X49.772 Y35.983
X49.582 Y36.696
X49.363 Y37.4
X49.118 Y38.096
X48.844 Y38.781
X48.544 Y39.455
X48.218 Y40.117
X47.866 Y40.765
X47.489 Y41.4
X47.087 Y42.019
X46.662 Y42.622
X46.214 Y43.208
X45.743 Y43.775
X45.25 Y44.324
X44.736 Y44.854
X44.201 Y45.363
X43.648 Y45.851
X43.076 Y46.317
X42.486 Y46.76
X41.88 Y47.18
X41.257 Y47.576
X40.619 Y47.946
X39.967 Y48.292
X39.303 Y48.612
X38.626 Y48.907
X37.939 Y49.175
X37.241 Y49.416
X36.535 Y49.63
X35.821 Y49.816
X35.101 Y49.974
X34.374 Y50.104
X33.644 Y50.206
X32.909 Y50.28
X32.173 Y50.326
X31.435 Y50.343
X30.698 Y50.331
X29.961 Y50.29
X29.227 Y50.22
X28.495 Y50.122
X27.768 Y49.996
X27.047 Y49.843
X26.331 Y49.661
X25.624 Y49.453
X24.925 Y49.217
X24.235 Y48.954
X23.557 Y48.664
X22.889 Y48.349
X22.235 Y48.009
X21.594 Y47.644
X20.967 Y47.254
X20.356 Y46.84
X19.762 Y46.403
X19.185 Y45.943
X18.626 Y45.461
X18.086 Y44.958
X17.566 Y44.436
X17.066 Y43.893
X16.587 Y43.332
X16.13 Y42.753
X15.695 Y42.156
X15.284 Y41.544
X14.897 Y40.916
X14.533 Y40.274
X14.195 Y39.618
X13.881 Y38.95
X13.594 Y38.271
X13.333 Y37.581
X13.099 Y36.881
X12.892 Y36.173
X12.712 Y35.457
X12.559 Y34.735
X12.433 Y34.008
X12.336 Y33.277
X12.266 Y32.543
X12.225 Y31.806
X12.211 Y31.068
X12.226 Y30.33
X12.268 Y29.594
X12.339 Y28.859
X12.437 Y28.128
X12.563 Y27.401
X12.716 Y26.679
X12.898 Y25.964
X13.106 Y25.257
X13.342 Y24.557
X13.604 Y23.868
X13.891 Y23.188
X14.204 Y22.52
X14.542 Y21.864
X14.905 Y21.222
X15.292 Y20.594
X15.703 Y19.981
X16.136 Y19.384
X16.592 Y18.803
X17.069 Y18.241
X17.567 Y17.696
X18.085 Y17.171
X18.623 Y16.666
X19.18 Y16.182
X19.755 Y15.72
X20.347 Y15.28
X20.956 Y14.862
X21.579 Y14.467
X22.216 Y14.096
X22.867 Y13.749
X23.531 Y13.426
X24.207 Y13.129
X24.893 Y12.858
X25.588 Y12.612
X26.293 Y12.393
X27.005 Y12.2
X27.724 Y12.034
X28.448 Y11.894
X29.178 Y11.783
X29.911 Y11.699
X30.646 Y11.644
X31.384 Y11.616
X32.122 Y11.615
X32.859 Y11.642
X33.595 Y11.696
X34.328 Y11.778
X35.058 Y11.888
X35.783 Y12.025
X36.502 Y12.189
X37.215 Y12.379
X37.92 Y12.597
X38.616 Y12.84
X39.304 Y13.109
X39.98 Y13.403
X40.645 Y13.723
X41.297 Y14.068
X41.936 Y14.437
X42.561 Y14.829
X43.171 Y15.244
X43.765 Y15.682
X44.342 Y16.141
X44.903 Y16.621
X45.444 Y17.122
X45.967 Y17.643
X46.47 Y18.182
X46.953 Y18.74
X47.415 Y19.316
X47.855 Y19.908
X48.273 Y20.516
X48.668 Y21.139
X49.039 Y21.777
X49.386 Y22.428
X49.708 Y23.092
X50.005 Y23.767
X50.277 Y24.453
X50.524 Y25.148
X50.745 Y25.852
X50.94 Y26.564
X51.109 Y27.282
X51.251 Y28.006
X51.366 Y28.735
X51.454 Y29.467
X51.483 Y29.829
X51.485 Y29.87
Y32.132
X51.411 Y33.606
X51.334 Y34.34
X51.223 Y35.069
X51.081 Y35.793
X50.911 Y36.511
X50.714 Y37.222
X50.491 Y37.925
X50.241 Y38.62
X49.966 Y39.304
X49.666 Y39.978
X49.341 Y40.641
X48.991 Y41.29
X48.618 Y41.927
X48.221 Y42.549
X47.802 Y43.156
X47.361 Y43.748
X46.899 Y44.323
X46.416 Y44.88
X45.913 Y45.42
X45.39 Y45.941
X44.85 Y46.443
X44.291 Y46.925
X43.715 Y47.386
X43.122 Y47.826
X42.514 Y48.243
X41.891 Y48.639
X41.254 Y49.01
X40.603 Y49.358
X39.94 Y49.682
X39.266 Y49.981
X38.581 Y50.255
X37.886 Y50.505
X37.183 Y50.729
X36.473 Y50.927
X35.755 Y51.099
X35.298 Y51.192
X35.25 Y51.2
X35.201 Y51.205
X35.151 Y51.206
X28.722
X27.985 Y51.169
X27.251 Y51.09
X26.526 Y50.956
X25.809 Y50.782
X25.101 Y50.574
X24.402 Y50.338
X23.713 Y50.075
X23.034 Y49.786
X22.366 Y49.472
X21.71 Y49.133
X21.068 Y48.771
X20.439 Y48.385
X19.824 Y47.977
X19.225 Y47.547
X18.641 Y47.095
X18.075 Y46.622
X17.525 Y46.13
X16.994 Y45.618
X16.481 Y45.088
X15.988 Y44.539
X15.514 Y43.973
X15.062 Y43.391
X14.63 Y42.792
X14.22 Y42.179
X13.833 Y41.551
X13.468 Y40.909
X13.128 Y40.255
X12.811 Y39.589
X12.518 Y38.911
X12.25 Y38.224
X12.007 Y37.527
X11.79 Y36.822
X11.685 Y36.435
X11.671 Y36.372
X11.662 Y36.307
X11.659 Y36.242
Y27.102
X11.695 Y26.396
X11.776 Y25.776
X11.93 Y25.055
X12.135 Y24.346
X12.376 Y23.648
X12.648 Y22.963
X12.948 Y22.288
X13.272 Y21.626
X13.621 Y20.976
X13.994 Y20.339
X14.389 Y19.716
X14.806 Y19.107
X15.244 Y18.513
X15.703 Y17.936
X16.182 Y17.375
X16.681 Y16.831
X17.198 Y16.305
X17.735 Y15.799
X18.29 Y15.313
X18.862 Y14.847
X19.45 Y14.401
X20.054 Y13.976
X20.671 Y13.573
X21.303 Y13.192
X21.948 Y12.833
X22.605 Y12.498
X23.273 Y12.185
X23.952 Y11.897
X24.641 Y11.632
X25.252 Y11.422
X25.331 Y11.399
X25.411 Y11.386
X25.493 Y11.381
X36.937
X37.418 Y11.405
X37.929 Y11.472
X38.595 Y11.615
X39.302 Y11.826
X39.993 Y12.083
X40.671 Y12.374
X41.336 Y12.694
X41.988 Y13.039
X42.627 Y13.409
X43.252 Y13.801
X43.862 Y14.215
X44.458 Y14.651
X45.037 Y15.108
X45.6 Y15.585
X46.146 Y16.081
X46.675 Y16.596
X47.185 Y17.129
X47.676 Y17.68
X48.148 Y18.247
X48.599 Y18.83
X49.03 Y19.429
X49.441 Y20.042
X49.829 Y20.67
X50.195 Y21.31
X50.538 Y21.963
X50.858 Y22.628
X51.155 Y23.304
X51.428 Y23.989
X51.441 Y24.028
X51.465 Y24.109
X51.48 Y24.192
X51.485 Y24.277
Y29.87
G3 X51.383 Y30.104 I-0.317 J0.
G1 X51.343 Y30.148
X51.312 Y30.199
X51.291 Y30.255
X51.281 Y30.314
X51.261 Y30.598
X51.219 Y31.194
X51.221 Y31.258
X51.236 Y31.32
X51.263 Y31.378
G3 X51.485 Y32.132 I-1.36 J0.809
G1 Y37.497
X51.46 Y37.98
X51.401 Y38.43
X51.281 Y38.992
X51.069 Y39.699
X50.803 Y40.387
X50.497 Y41.058
X50.161 Y41.715
X49.798 Y42.357
X49.411 Y42.986
X49.002 Y43.6
X48.572 Y44.199
X48.121 Y44.783
X47.65 Y45.351
X47.159 Y45.902
X46.651 Y46.436
X46.124 Y46.953
X45.58 Y47.451
X45.019 Y47.931
X44.442 Y48.391
X43.849 Y48.83
X43.242 Y49.249
X42.62 Y49.646
X41.985 Y50.021
X41.336 Y50.374
X40.676 Y50.703
X40.006 Y51.011
X39.673 Y51.149
X39.581 Y51.181
X39.485 Y51.2
X39.388 Y51.206
X35.151
G3 X34.975 Y50.633 I0.011 J-0.317
G1 X35.032 Y50.591 Z35.008
X35.086 Y50.551 Z35.031
X35.134 Y50.516 Z35.069
X35.175 Y50.486 Z35.12
X35.205 Y50.464 Z35.18
X35.224 Y50.45 Z35.247
X35.231 Y50.445 Z35.318
G0 Z43.
X51.101 Y36.471
Z35.635
G1 Z35.318 F1016.
X51.105 Y36.478 Z35.247
X51.117 Y36.498 Z35.18
X51.136 Y36.53 Z35.12
X51.162 Y36.574 Z35.069
X51.193 Y36.625 Z35.031
X51.227 Y36.683 Z35.008
X51.263 Y36.744 Z35.
G3 X51.485 Y37.497 I-1.36 J0.809
G1 Y40.515
X51.468 Y40.841
X51.43 Y41.135
X51.35 Y41.508
X51.217 Y41.953
X50.993 Y42.527
X50.671 Y43.191
X50.302 Y43.83
X49.9 Y44.449
X49.472 Y45.05
X49.022 Y45.634
X48.551 Y46.202
X48.061 Y46.754
X47.553 Y47.289
X47.028 Y47.807
X46.486 Y48.307
X45.927 Y48.79
X45.354 Y49.254
X44.765 Y49.699
X44.162 Y50.124
X43.546 Y50.529
X42.916 Y50.914
X42.57 Y51.11
X42.454 Y51.163
X42.331 Y51.195
X42.205 Y51.206
X39.388
G3 X39.211 Y50.633 I0.011 J-0.317
G1 X39.268 Y50.591 Z35.008
X39.322 Y50.551 Z35.031
X39.371 Y50.516 Z35.069
X39.411 Y50.486 Z35.12
X39.442 Y50.464 Z35.18
X39.461 Y50.45 Z35.247
X39.467 Y50.445 Z35.318
G0 Z43.
X51.101 Y39.489
Z35.635
G1 Z35.318 F1016.
X51.105 Y39.496 Z35.247
X51.117 Y39.516 Z35.18
X51.136 Y39.548 Z35.12
X51.162 Y39.592 Z35.069
X51.193 Y39.643 Z35.031
X51.227 Y39.701 Z35.008
X51.263 Y39.762 Z35.
G3 X51.485 Y40.515 I-1.36 J0.809
G1 Y42.863
X51.468 Y43.193
X51.436 Y43.434
X51.372 Y43.736
X51.27 Y44.074
X51.101 Y44.51
X50.846 Y45.035
X50.471 Y45.671
X50.05 Y46.277
X49.597 Y46.859
X49.119 Y47.421
X48.62 Y47.964
X48.102 Y48.49
X47.568 Y48.999
X47.017 Y49.49
X46.452 Y49.964
X45.872 Y50.42
X45.278 Y50.858
X44.964 Y51.075
X44.833 Y51.147
X44.691 Y51.191
X44.543 Y51.206
X42.205
G3 X42.004 Y50.652 I0.011 J-0.317
G1 X42.027 Y50.632
X50.906 Y42.681
X50.955 Y42.637
G3 X51.485 Y42.863 I0.212 J0.237
G1 Y45.042
X51.473 Y45.266
X51.444 Y45.487
X51.39 Y45.742
X51.303 Y46.033
X51.162 Y46.393
X50.959 Y46.812
X50.652 Y47.334
X50.228 Y47.938
X49.761 Y48.509
X49.265 Y49.055
X48.747 Y49.58
X48.21 Y50.087
X47.657 Y50.575
X47.082 Y51.05
X46.943 Y51.135
X46.789 Y51.188
X46.627 Y51.206
G3 X46.387 Y50.694 I0.011 J-0.317
G1 X46.441 Y50.625
X50.911 Y44.865
X50.916 Y44.859
G3 X51.485 Y45.042 I0.251 J0.195
G1 Y47.054
X51.477 Y47.204
X51.448 Y47.409
X51.396 Y47.636
X51.308 Y47.916
X51.183 Y48.226
X50.991 Y48.61
X50.723 Y49.052
X50.318 Y49.614
X49.84 Y50.175
X49.328 Y50.707
X49.014 Y51.003
X48.864 Y51.114
X48.69 Y51.183
X48.505 Y51.206
G3 X48.255 Y50.708 I0.011 J-0.317
G1 X48.315 Y50.621
X50.906 Y46.884
G3 X51.485 Y47.054 I0.261 J0.181
G1 Y48.731
X51.472 Y48.987
X51.449 Y49.165
X51.404 Y49.373
X51.328 Y49.627
X51.222 Y49.899
X51.062 Y50.228
X50.839 Y50.608
X50.64 Y50.891
X50.521 Y51.023
X50.375 Y51.123
X50.209 Y51.185
X50.033 Y51.206
G3 X49.763 Y50.742 I0.011 J-0.317
G1 X49.83 Y50.613
X50.886 Y48.595
G3 X51.485 Y48.731 I0.281 J0.147
G1 Y50.5
X51.477 Y50.649
X51.422 Y50.827
X51.32 Y50.983
X51.178 Y51.103
X51.009 Y51.18
X50.825 Y51.206
G3 X50.597 Y50.68 I0.011 J-0.317
G1 X50.643 Y50.628
X50.91 Y50.322
X50.929 Y50.301
G3 X51.485 Y50.5 I0.239 J0.209
G1 Y50.743
X51.483 Y50.91
X51.476 Y50.952
X51.462 Y50.994
X51.442 Y51.036
X51.413 Y51.078
X51.385 Y51.109
X51.356 Y51.135
X51.314 Y51.164
X51.273 Y51.184
X51.231 Y51.197
X51.189 Y51.205
X51.021 Y51.206
X44.543
G3 X44.366 Y50.633 I0.011 J-0.317
G1 X44.423 Y50.591 Z35.008
X44.477 Y50.551 Z35.031
X44.526 Y50.516 Z35.069
X44.566 Y50.486 Z35.12
X44.597 Y50.464 Z35.18
X44.616 Y50.45 Z35.247
X44.622 Y50.445 Z35.318
G0 Z43.
X35.911 Y11.765
Z35.635
G1 Z35.318 F1016.
X35.918 Y11.761 Z35.247
X35.938 Y11.749 Z35.18
X35.97 Y11.729 Z35.12
X36.013 Y11.704 Z35.069
X36.065 Y11.673 Z35.031
X36.123 Y11.639 Z35.008
X36.184 Y11.603 Z35.
G3 X36.937 Y11.381 I0.809 J1.36
G1 X40.123
X40.489 Y11.4
X40.803 Y11.441
X41.211 Y11.528
X41.698 Y11.674
X42.329 Y11.92
X42.993 Y12.242
X43.635 Y12.605
X44.259 Y13.
X44.866 Y13.42
X45.456 Y13.862
X46.031 Y14.325
X46.589 Y14.807
X47.131 Y15.308
X47.656 Y15.826
X48.163 Y16.362
X48.653 Y16.914
X49.124 Y17.481
X49.577 Y18.064
X50.009 Y18.662
X50.422 Y19.274
X50.813 Y19.899
X51.184 Y20.537
X51.396 Y20.932
X51.445 Y21.043
X51.475 Y21.161
X51.485 Y21.283
Y24.277
G3 X50.911 Y24.454 I-0.317 J-0.011
G1 X50.869 Y24.397 Z35.008
X50.83 Y24.343 Z35.031
X50.794 Y24.294 Z35.069
X50.764 Y24.254 Z35.12
X50.742 Y24.223 Z35.18
X50.728 Y24.204 Z35.247
X50.723 Y24.198 Z35.318
G0 Z43.
X39.096 Y11.765
Z35.635
G1 Z35.318 F1016.
X39.103 Y11.761 Z35.247
X39.123 Y11.749 Z35.18
X39.156 Y11.729 Z35.12
X39.199 Y11.704 Z35.069
X39.251 Y11.673 Z35.031
X39.309 Y11.639 Z35.008
X39.369 Y11.603 Z35.
G3 X40.123 Y11.381 I0.809 J1.36
G1 X42.638
X42.931 Y11.396
X43.181 Y11.429
X43.495 Y11.496
X43.855 Y11.604
X44.316 Y11.783
X44.883 Y12.059
X45.519 Y12.433
X46.127 Y12.851
X46.713 Y13.299
X47.28 Y13.772
X47.829 Y14.265
X48.36 Y14.777
X48.875 Y15.306
X49.372 Y15.851
X49.852 Y16.411
X50.314 Y16.986
X50.758 Y17.576
X51.183 Y18.179
X51.363 Y18.452
X51.429 Y18.579
X51.471 Y18.716
X51.485 Y18.859
Y21.283
G3 X50.93 Y21.483 I-0.317 J-0.011
G1 X50.91 Y21.46
X42.456 Y11.96
X42.412 Y11.91
G3 X42.638 Y11.381 I0.237 J-0.211
G1 X44.817
X45.063 Y11.393
X45.287 Y11.423
X45.553 Y11.48
X45.852 Y11.569
X46.226 Y11.715
X46.664 Y11.927
X47.213 Y12.251
X47.816 Y12.675
X48.39 Y13.139
X48.94 Y13.631
X49.469 Y14.145
X49.98 Y14.677
X50.473 Y15.226
X50.948 Y15.791
X51.325 Y16.266
X51.412 Y16.406
X51.466 Y16.562
X51.485 Y16.726
Y18.859
G3 X50.93 Y19.059 I-0.317 J-0.011
G1 X50.91 Y19.037
X44.636 Y11.96
X44.591 Y11.909
G3 X44.817 Y11.381 I0.238 J-0.211
G1 X46.829
X47.005 Y11.39
X47.218 Y11.418
X47.44 Y11.465
X47.715 Y11.548
X48.032 Y11.671
X48.41 Y11.855
X48.86 Y12.12
X49.426 Y12.517
X49.994 Y12.989
X50.532 Y13.494
X51.046 Y14.023
X51.295 Y14.301
X51.398 Y14.448
X51.463 Y14.617
X51.485 Y14.796
G3 X50.983 Y15.043 I-0.317 J-0.011
G1 X50.901 Y14.984
X46.656 Y11.957
G3 X46.829 Y11.381 I0.184 J-0.258
G1 X48.674
X48.833 Y11.389
X49.011 Y11.413
X49.226 Y11.459
X49.488 Y11.537
X49.761 Y11.643
X50.106 Y11.811
X50.491 Y12.037
X50.973 Y12.376
X51.217 Y12.578
X51.361 Y12.739
X51.453 Y12.935
X51.485 Y13.148
G3 X51.008 Y13.412 I-0.317 J-0.011
G1 X50.895 Y13.346
X48.526 Y11.973
G3 X48.674 Y11.381 I0.159 J-0.275
G1 X50.35
X50.553 Y11.391
X50.724 Y11.414
X50.882 Y11.447
X50.956 Y11.47
X51.169 Y11.573
X51.338 Y11.737
X51.447 Y11.947
X51.485 Y12.18
G3 X51.007 Y12.443 I-0.317 J-0.011
G1 X50.895 Y12.377
X50.201 Y11.973
G3 X50.35 Y11.381 I0.16 J-0.274
G1 X51.021
X51.189 Y11.383
X51.231 Y11.39
X51.273 Y11.403
X51.314 Y11.423
X51.356 Y11.452
X51.385 Y11.478
X51.413 Y11.509
X51.442 Y11.551
X51.462 Y11.593
X51.476 Y11.635
X51.483 Y11.677
X51.485 Y11.845
Y16.726
G3 X50.911 Y16.903 I-0.317 J-0.011
G1 X50.869 Y16.846 Z35.008
X50.83 Y16.792 Z35.031
X50.794 Y16.743 Z35.069
X50.764 Y16.703 Z35.12
X50.742 Y16.672 Z35.18
X50.728 Y16.653 Z35.247
X50.723 Y16.647 Z35.318
G0 Z43.
X12.043 Y28.129
Z35.635
G1 Z35.318 F1016.
X12.039 Y28.122 Z35.247
X12.027 Y28.102 Z35.18
X12.008 Y28.069 Z35.12
X11.982 Y28.026 Z35.069
X11.951 Y27.974 Z35.031
X11.917 Y27.916 Z35.008
X11.881 Y27.856 Z35.
G3 X11.659 Y27.102 I1.36 J-0.809
G1 Y23.413
X11.676 Y23.09
X11.722 Y22.74
X11.816 Y22.299
X11.985 Y21.735
X12.253 Y21.047
X12.573 Y20.382
X12.929 Y19.737
X13.315 Y19.108
X13.726 Y18.494
X14.158 Y17.897
X14.611 Y17.315
X15.084 Y16.748
X15.576 Y16.198
X16.086 Y15.665
X16.614 Y15.15
X17.16 Y14.653
X17.722 Y14.175
X18.299 Y13.716
X18.892 Y13.276
X19.499 Y12.856
X20.119 Y12.457
X20.752 Y12.078
X21.398 Y11.721
X21.903 Y11.462
X22.011 Y11.418
X22.124 Y11.39
X22.241 Y11.381
X25.493
G3 X25.67 Y11.955 I-0.011 J0.317
G1 X25.613 Y11.996 Z35.008
X25.559 Y12.036 Z35.031
X25.51 Y12.072 Z35.069
X25.47 Y12.101 Z35.12
X25.439 Y12.124 Z35.18
X25.42 Y12.138 Z35.247
X25.414 Y12.142 Z35.318
G0 Z43.
X12.043 Y24.44
Z35.635
G1 Z35.318 F1016.
X12.039 Y24.433 Z35.247
X12.027 Y24.413 Z35.18
X12.008 Y24.38 Z35.12
X11.982 Y24.337 Z35.069
X11.951 Y24.285 Z35.031
X11.917 Y24.228 Z35.008
X11.881 Y24.167 Z35.
G3 X11.659 Y23.413 I1.36 J-0.809
G1 Y20.731
X11.67 Y20.521
X11.704 Y20.261
X11.774 Y19.933
X11.89 Y19.546
X12.083 Y19.051
X12.384 Y18.431
X12.758 Y17.796
X13.171 Y17.185
X13.614 Y16.594
X14.08 Y16.022
X14.566 Y15.467
X15.072 Y14.93
X15.595 Y14.409
X16.134 Y13.906
X16.69 Y13.421
X17.261 Y12.953
X17.846 Y12.504
X18.445 Y12.073
X19.057 Y11.662
X19.324 Y11.495
X19.447 Y11.432
X19.58 Y11.394
X19.718 Y11.381
X22.241
G3 X22.439 Y11.937 I-0.011 J0.317
G1 X22.418 Y11.955
X12.238 Y20.913
X12.187 Y20.958
G3 X11.659 Y20.731 I-0.21 J-0.238
G1 Y18.551
X11.671 Y18.319
X11.701 Y18.09
X11.761 Y17.811
X11.853 Y17.502
X12.007 Y17.109
X12.23 Y16.648
X12.575 Y16.063
X12.999 Y15.459
X13.46 Y14.883
X13.948 Y14.33
X14.458 Y13.797
X14.986 Y13.282
X15.531 Y12.784
X16.092 Y12.304
X16.666 Y11.842
X17.078 Y11.531
X17.214 Y11.449
X17.366 Y11.398
X17.524 Y11.381
X19.718
G3 X19.917 Y11.936 I-0.011 J0.317
G1 X19.895 Y11.956
X12.238 Y18.733
X12.187 Y18.778
G3 X11.659 Y18.551 I-0.21 J-0.238
G1 Y16.539
X11.67 Y16.333
X11.698 Y16.115
X11.747 Y15.885
X11.831 Y15.607
X11.96 Y15.276
X12.148 Y14.888
X12.425 Y14.418
X12.841 Y13.825
X13.313 Y13.257
X13.816 Y12.718
X14.343 Y12.201
X14.889 Y11.705
X15.062 Y11.558
X15.206 Y11.461
X15.369 Y11.402
X15.542 Y11.381
G3 X15.786 Y11.887 I-0.011 J0.317
G1 X15.729 Y11.964
X12.233 Y16.716
G3 X11.659 Y16.539 I-0.256 J-0.188
G1 Y14.695
X11.671 Y14.474
X11.695 Y14.29
X11.741 Y14.075
X11.82 Y13.811
X11.93 Y13.529
X12.099 Y13.18
X12.334 Y12.781
X12.684 Y12.282
X13.155 Y11.714
X13.257 Y11.609
X13.412 Y11.485
X13.595 Y11.408
X13.791 Y11.381
G3 X14.052 Y11.863 I-0.011 J0.317
G1 X13.987 Y11.97
X12.249 Y14.848
G3 X11.659 Y14.695 I-0.272 J-0.164
G1 Y12.851
X11.667 Y12.701
X11.696 Y12.514
X11.75 Y12.286
X11.827 Y12.049
X11.915 Y11.837
X11.942 Y11.784
X12.058 Y11.618
X12.215 Y11.49
X12.4 Y11.409
X12.601 Y11.381
G3 X12.87 Y11.849 I-0.011 J0.317
G1 X12.803 Y11.973
X12.256 Y12.99
G3 X11.659 Y12.851 I-0.28 J-0.15
G1 Y11.845
X11.661 Y11.677
X11.668 Y11.635
X11.682 Y11.593
X11.702 Y11.551
X11.731 Y11.509
X11.757 Y11.481
X11.788 Y11.452
X11.829 Y11.424
X11.871 Y11.403
X11.913 Y11.39
X11.955 Y11.383
X12.123 Y11.381
X17.524
G3 X17.701 Y11.955 I-0.011 J0.317
G1 X17.644 Y11.996 Z35.008
X17.59 Y12.036 Z35.031
X17.541 Y12.072 Z35.069
X17.501 Y12.101 Z35.12
X17.47 Y12.124 Z35.18
X17.451 Y12.138 Z35.247
X17.445 Y12.142 Z35.318
G0 Z43.
X29.748 Y50.823
Z35.635
G1 Z35.318 F1016.
X29.741 Y50.827 Z35.247
X29.721 Y50.839 Z35.18
X29.689 Y50.858 Z35.12
X29.645 Y50.884 Z35.069
X29.594 Y50.914 Z35.031
X29.536 Y50.949 Z35.008
X29.475 Y50.985 Z35.
G3 X28.722 Y51.206 I-0.809 J-1.36
G1 X24.53
X24.117 Y51.186
X23.727 Y51.134
X23.223 Y51.027
X22.6 Y50.84
X21.913 Y50.572
X21.245 Y50.259
X20.593 Y49.912
X19.958 Y49.538
X19.337 Y49.139
X18.731 Y48.718
X18.141 Y48.276
X17.566 Y47.813
X17.007 Y47.332
X16.465 Y46.831
X15.94 Y46.313
X15.432 Y45.777
X14.943 Y45.224
X14.474 Y44.656
X14.023 Y44.071
X13.593 Y43.472
X13.183 Y42.859
X12.794 Y42.231
X12.428 Y41.591
X12.084 Y40.938
X11.762 Y40.274
X11.723 Y40.187
X11.688 Y40.09
X11.667 Y39.989
X11.659 Y39.887
Y36.242
G3 X12.233 Y36.065 I0.317 J0.011
G1 X12.275 Y36.122 Z35.008
X12.314 Y36.176 Z35.031
X12.35 Y36.225 Z35.069
X12.38 Y36.265 Z35.12
X12.402 Y36.296 Z35.18
X12.416 Y36.315 Z35.247
X12.421 Y36.321 Z35.318
G0 Z43.
X25.557 Y50.823
Z35.635
G1 Z35.318 F1016.
X25.55 Y50.827 Z35.247
X25.53 Y50.839 Z35.18
X25.497 Y50.858 Z35.12
X25.454 Y50.884 Z35.069
X25.402 Y50.914 Z35.031
X25.344 Y50.949 Z35.008
X25.284 Y50.985 Z35.
G3 X24.53 Y51.206 I-0.809 J-1.36
G1 X21.68
X21.416 Y51.193
X21.14 Y51.157
X20.791 Y51.082
X20.378 Y50.958
X19.848 Y50.752
X19.184 Y50.43
X18.548 Y50.056
X17.934 Y49.647
X17.339 Y49.211
X16.761 Y48.752
X16.2 Y48.273
X15.656 Y47.774
X15.128 Y47.258
X14.618 Y46.725
X14.125 Y46.176
X13.651 Y45.612
X13.194 Y45.032
X12.756 Y44.438
X12.337 Y43.831
X11.939 Y43.21
X11.764 Y42.918
X11.707 Y42.799
X11.671 Y42.671
X11.659 Y42.538
Y39.887
G3 X12.214 Y39.687 I0.317 J0.011
G1 X12.234 Y39.709
X22.406 Y51.164
X22.437 Y51.189
X22.476 Y51.202
X22.517 Y51.201
X22.554 Y51.186
X22.585 Y51.159
X22.605 Y51.124
X22.611 Y51.084
X22.603 Y51.044
X22.582 Y51.009
X22.55 Y50.983
X22.512 Y50.97
X22.471
X22.433 Y50.985
G3 X21.68 Y51.206 I-0.809 J-1.36
G1 X19.332
X19.15 Y51.197
X18.916 Y51.166
X18.626 Y51.104
X18.303 Y51.008
X17.888 Y50.846
X17.399 Y50.609
X16.769 Y50.238
X16.166 Y49.814
X15.587 Y49.356
X15.03 Y48.872
X14.492 Y48.367
X13.972 Y47.844
X13.469 Y47.304
X12.983 Y46.749
X12.514 Y46.179
X12.064 Y45.595
X11.8 Y45.231
X11.723 Y45.097
X11.676 Y44.95
X11.659 Y44.797
Y42.538
G3 X12.215 Y42.339 I0.317 J0.011
G1 X12.234 Y42.361
X19.514 Y50.628
X19.56 Y50.679
G3 X19.332 Y51.206 I-0.238 J0.21
G1 X17.321
X17.115 Y51.196
X16.897 Y51.167
X16.653 Y51.115
X16.37 Y51.03
X16.025 Y50.896
X15.623 Y50.701
X15.128 Y50.409
X14.524 Y49.985
X13.955 Y49.516
X13.412 Y49.016
X12.891 Y48.494
X12.39 Y47.952
X11.907 Y47.395
X11.826 Y47.296
X11.735 Y47.154
X11.679 Y46.995
X11.659 Y46.828
G3 X12.169 Y46.586 I0.317 J0.011
G1 X12.242 Y46.642
X17.497 Y50.633
X17.501 Y50.636
G3 X17.321 Y51.206 I-0.192 J0.253
G1 X15.476
X15.226 Y51.194
X15.033 Y51.168
X14.816 Y51.122
X14.549 Y51.042
X14.255 Y50.927
X13.897 Y50.754
X13.482 Y50.51
X12.962 Y50.144
X12.394 Y49.673
X11.889 Y49.192
X11.765 Y49.036
X11.686 Y48.853
X11.659 Y48.655
G3 X12.147 Y48.399 I0.317 J0.011
G1 X12.247 Y48.462
X15.636 Y50.621
G3 X15.476 Y51.206 I-0.171 J0.268
G1 X13.632
X13.465 Y51.198
X13.287 Y51.175
X13.072 Y51.129
X12.826 Y51.055
X12.56 Y50.951
X12.232 Y50.792
X12.024 Y50.67
X11.873 Y50.552
X11.757 Y50.399
X11.684 Y50.222
X11.659 Y50.032
G3 X12.122 Y49.76 I0.317 J0.011
G1 X12.253 Y49.828
X13.766 Y50.607
G3 X13.632 Y51.206 I-0.145 J0.282
G1 X12.123
X12.095
X12.053
X11.902 Y51.167
X11.775 Y51.076
X11.691 Y50.945
X11.66 Y50.793
G3 X12.172 Y50.437 I0.386 J0.01
X12.053 Y51.206 I-0.129 J0.373
G1 X11.955 Y51.205
X11.913 Y51.197
X11.871 Y51.184
X11.829 Y51.164
X11.788 Y51.135
X11.757 Y51.107
X11.731 Y51.078
X11.702 Y51.036
X11.682 Y50.994
X11.668 Y50.952
X11.661 Y50.91
X11.659 Y50.743
Y44.797
G3 X11.957 Y44.491 I0.317 J0.011
G1 X11.977 Y44.49 Z35.001
X12.03 Y44.504 Z35.009
X12.081 Y44.517 Z35.027
X12.128 Y44.529 Z35.054
X12.164 Y44.56 Z35.094
X12.193 Y44.586 Z35.142
X12.215 Y44.605 Z35.197
X12.228 Y44.616 Z35.256
X12.233 Y44.62 Z35.317
G0 Z43.
X31.572 Y31.294
Z37.5
G1 Z32. F51.
Y31.256 F1016.
X31.609 Y31.264
X31.626 Y31.297
X31.615 Y31.333
X31.585 Y31.355
X31.547 Y31.354
X31.514 Y31.337
X31.489 Y31.308
X31.477 Y31.273
X31.479 Y31.235
X31.496 Y31.202
X31.521 Y31.174
X31.554 Y31.155
X31.627 Y31.138
X31.699 Y31.157
X31.756 Y31.206
X31.79 Y31.273
X31.799 Y31.347
X31.781 Y31.42
X31.742 Y31.484
X31.685 Y31.533
X31.549 Y31.596
X31.399 Y31.583
X31.271 Y31.505
X31.184 Y31.383
X31.151 Y31.236
X31.17 Y31.088
X31.236 Y30.953
X31.342 Y30.846
X31.473 Y30.774
X31.619 Y30.742
X31.769 Y30.751
X31.911 Y30.799
X32.037 Y30.882
X32.137 Y30.993
X32.209 Y31.125
X32.249 Y31.269
X32.255 Y31.419
X32.227 Y31.567
X32.172 Y31.706
X32.09 Y31.832
X31.985 Y31.938
X31.861 Y32.024
X31.723 Y32.083
X31.577 Y32.117
X31.428 Y32.124
X31.279 Y32.104
X31.136 Y32.059
X31.003 Y31.99
X30.882 Y31.901
X30.779 Y31.792
X30.694 Y31.668
X30.629 Y31.533
X30.586 Y31.389
X30.565 Y31.241
X30.566 Y31.091
X30.589 Y30.943
X30.634 Y30.799
X30.697 Y30.663
X30.78 Y30.538
X30.878 Y30.425
X30.991 Y30.326
X31.116 Y30.243
X31.252 Y30.178
X31.394 Y30.13
X31.541 Y30.102
X31.691 Y30.092
X31.84 Y30.101
X31.988 Y30.128
X32.131 Y30.173
X32.268 Y30.235
X32.395 Y30.313
X32.514 Y30.406
X32.62 Y30.512
X32.713 Y30.629
X32.792 Y30.757
X32.857 Y30.892
X32.905 Y31.034
X32.938 Y31.18
X32.955 Y31.33
Y31.479
X32.94 Y31.629
X32.908 Y31.775
X32.862 Y31.918
X32.801 Y32.055
X32.726 Y32.185
X32.638 Y32.307
X32.539 Y32.419
X32.429 Y32.52
X32.309 Y32.611
X32.18 Y32.688
X32.045 Y32.754
X31.904 Y32.805
X31.759 Y32.843
X31.611 Y32.866
X31.461 Y32.876
X31.312 Y32.871
X31.163 Y32.852
X31.016 Y32.82
X30.873 Y32.774
X30.735 Y32.715
X30.603 Y32.644
X30.478 Y32.562
X30.361 Y32.468
X30.252 Y32.365
X30.153 Y32.252
X30.065 Y32.131
X29.986 Y32.003
X29.92 Y31.868
X29.865 Y31.729
X29.822 Y31.585
X29.792 Y31.438
X29.774 Y31.289
X29.768 Y31.139
X29.775 Y30.989
X29.794 Y30.841
X29.826 Y30.694
X29.869 Y30.55
X29.925 Y30.407
X29.99 Y30.272
X30.07 Y30.139
X30.158 Y30.014
X30.255 Y29.898
X30.365 Y29.786
X30.48 Y29.687
X30.608 Y29.593
X30.742 Y29.51
X30.88 Y29.44
X31.03 Y29.378
X31.18 Y29.329
X31.335 Y29.293
X31.498 Y29.268
X31.657 Y29.257
X31.82 Y29.258
X31.987 Y29.273
X32.146 Y29.301
X32.307 Y29.342
X32.468 Y29.397
X32.619 Y29.463
X32.766 Y29.542
X32.912 Y29.636
X33.046 Y29.738
X33.172 Y29.851
X33.292 Y29.979
X33.401 Y30.115
X33.498 Y30.257
X33.585 Y30.409
X33.661 Y30.572
X33.723 Y30.739
X33.77 Y30.908
X33.805 Y31.084
X33.826 Y31.267
X33.833 Y31.448
X33.825 Y31.628
X33.801 Y31.81
X33.763 Y31.993
X33.71 Y32.171
X33.644 Y32.344
X33.564 Y32.511
X33.469 Y32.675
X33.359 Y32.832
X33.238 Y32.979
X33.105 Y33.116
X32.963 Y33.242
X32.808 Y33.358
X32.642 Y33.462
X32.467 Y33.553
X32.287 Y33.629
X32.101 Y33.691
X31.911 Y33.737
X31.714 Y33.769
X31.514 Y33.785
X31.312 Y33.784
X31.11 Y33.768
X30.909 Y33.735
X30.712 Y33.686
X30.519 Y33.621
X30.331 Y33.541
X30.148 Y33.445
X29.972 Y33.334
X29.804 Y33.208
X29.646 Y33.068
X29.5 Y32.916
X29.365 Y32.751
X29.244 Y32.576
X29.136 Y32.391
X29.044 Y32.196
X28.967 Y31.995
X28.906 Y31.786
X28.862 Y31.573
X28.835 Y31.356
X28.826 Y31.136
X28.834 Y30.915
X28.86 Y30.694
X28.904 Y30.475
X28.966 Y30.26
X29.045 Y30.048
X29.142 Y29.843
X29.255 Y29.645
X29.384 Y29.457
X29.528 Y29.278
X29.687 Y29.111
X29.86 Y28.956
X30.045 Y28.816
X30.243 Y28.689
X30.45 Y28.579
X30.666 Y28.486
X30.89 Y28.409
X31.121 Y28.351
X31.356 Y28.311
X31.595 Y28.29
X31.836 Y28.289
X32.077 Y28.306
X32.317 Y28.344
X32.554 Y28.4
X32.787 Y28.476
X33.014 Y28.571
X33.234 Y28.684
X33.444 Y28.814
X33.645 Y28.962
X33.833 Y29.127
X34.009 Y29.307
X34.171 Y29.5
X34.316 Y29.708
X34.446 Y29.927
X34.558 Y30.157
X34.651 Y30.396
X34.725 Y30.643
X34.78 Y30.896
X34.814 Y31.154
X34.827 Y31.415
X34.82 Y31.676
X34.791 Y31.938
X34.741 Y32.197
X34.67 Y32.453
X34.578 Y32.704
X34.467 Y32.947
X34.336 Y33.18
X34.185 Y33.404
X34.017 Y33.616
X33.831 Y33.814
X33.629 Y33.998
X33.412 Y34.165
X33.182 Y34.315
X32.94 Y34.447
X32.687 Y34.559
X32.425 Y34.65
X32.154 Y34.721
X31.878 Y34.77
X31.598 Y34.797
X31.316 Y34.801
X31.034 Y34.783
X30.753 Y34.742
X30.475 Y34.678
X30.201 Y34.591
X29.935 Y34.483
X29.677 Y34.353
X29.429 Y34.202
X29.193 Y34.03
X28.971 Y33.84
X28.765 Y33.632
X28.575 Y33.408
X28.403 Y33.168
X28.25 Y32.914
X28.118 Y32.647
X28.007 Y32.37
X27.918 Y32.084
X27.852 Y31.79
X27.81 Y31.491
X27.792 Y31.189
X27.799 Y30.885
X27.83 Y30.581
X27.885 Y30.28
X27.965 Y29.982
X28.068 Y29.692
X28.196 Y29.409
X28.345 Y29.137
X28.517 Y28.876
X28.71 Y28.63
X28.923 Y28.398
X29.155 Y28.184
X29.404 Y27.989
X29.668 Y27.813
X29.947 Y27.659
X30.238 Y27.527
X30.54 Y27.419
X30.851 Y27.335
X31.169 Y27.275
X31.491 Y27.242
X31.816 Y27.234
X32.142 Y27.253
X32.466 Y27.298
X32.786 Y27.369
X33.101 Y27.466
X33.408 Y27.588
X33.706 Y27.735
X33.992 Y27.906
X34.263 Y28.099
X34.52 Y28.315
X34.759 Y28.552
X34.979 Y28.808
X35.178 Y29.081
X35.356 Y29.371
X35.51 Y29.675
X35.639 Y29.991
X35.744 Y30.318
X35.822 Y30.654
X35.872 Y30.995
X35.896 Y31.341
X35.891 Y31.688
X35.859 Y32.036
X35.798 Y32.38
X35.71 Y32.72
X35.595 Y33.053
X35.453 Y33.376
X35.284 Y33.688
X35.091 Y33.986
X34.873 Y34.269
X34.633 Y34.534
X34.372 Y34.78
X34.091 Y35.005
X33.791 Y35.207
X33.476 Y35.385
X33.146 Y35.537
X32.804 Y35.663
X32.452 Y35.762
X32.092 Y35.832
X31.726 Y35.873
X31.358 Y35.884
X30.988 Y35.866
X30.62 Y35.819
X30.256 Y35.741
X29.898 Y35.634
X29.548 Y35.499
X29.21 Y35.335
X28.885 Y35.144
X28.575 Y34.927
X28.283 Y34.685
X28.011 Y34.42
X27.759 Y34.133
X27.531 Y33.825
X27.328 Y33.5
X27.152 Y33.158
X27.002 Y32.802
X26.882 Y32.434
X26.791 Y32.056
X26.73 Y31.672
X26.701 Y31.282
X26.702 Y30.89
X26.736 Y30.499
X26.801 Y30.11
X26.897 Y29.726
X27.024 Y29.35
X27.181 Y28.985
X27.367 Y28.632
X27.582 Y28.295
X27.824 Y27.975
X28.092 Y27.674
X28.384 Y27.396
X28.698 Y27.14
X29.032 Y26.911
X29.385 Y26.708
X29.754 Y26.533
X30.137 Y26.389
X30.531 Y26.275
X30.934 Y26.193
X31.344 Y26.144
X31.757 Y26.127
X32.172 Y26.144
X32.585 Y26.194
X32.994 Y26.278
X33.395 Y26.394
X33.788 Y26.543
X34.168 Y26.723
X34.533 Y26.933
X34.882 Y27.173
X35.211 Y27.441
X35.518 Y27.735
X35.801 Y28.054
X36.059 Y28.396
X36.289 Y28.758
X36.49 Y29.138
X36.66 Y29.535
X36.798 Y29.944
X36.903 Y30.365
X36.974 Y30.794
X37.011 Y31.229
X37.013 Y31.666
X36.979 Y32.103
X36.91 Y32.537
X36.807 Y32.966
X36.668 Y33.385
X36.497 Y33.794
X36.292 Y34.188
X36.056 Y34.566
X35.79 Y34.924
X35.495 Y35.261
X35.173 Y35.574
X34.826 Y35.861
X34.456 Y36.119
X34.066 Y36.348
X33.657 Y36.545
X33.233 Y36.709
X32.796 Y36.839
X32.349 Y36.934
X31.895 Y36.992
X31.436 Y37.014
X30.976 Y36.999
X30.517 Y36.947
X30.063 Y36.859
X29.616 Y36.733
X29.179 Y36.572
X28.756 Y36.376
X28.349 Y36.146
X27.961 Y35.883
X27.594 Y35.589
X27.251 Y35.266
X26.934 Y34.916
X26.646 Y34.54
X26.388 Y34.142
X26.163 Y33.723
X25.971 Y33.286
X25.815 Y32.834
X25.695 Y32.37
X25.612 Y31.897
X25.568 Y31.417
X25.562 Y30.934
X25.595 Y30.451
X25.667 Y29.971
X25.778 Y29.497
X25.926 Y29.032
X26.112 Y28.58
X26.334 Y28.143
X26.591 Y27.724
X26.882 Y27.326
X27.204 Y26.952
X27.556 Y26.605
X27.936 Y26.285
X28.341 Y25.997
X28.769 Y25.741
X29.217 Y25.521
X29.683 Y25.336
X30.163 Y25.189
X30.654 Y25.081
X31.154 Y25.012
X31.658 Y24.984
X32.165 Y24.996
X32.67 Y25.049
X33.17 Y25.143
X33.662 Y25.276
X34.143 Y25.45
X34.61 Y25.661
X35.059 Y25.91
X35.488 Y26.195
X35.894 Y26.515
X36.273 Y26.866
X36.624 Y27.248
X36.944 Y27.658
X37.23 Y28.093
X37.482 Y28.551
X37.696 Y29.028
X37.872 Y29.522
X38.007 Y30.03
X38.102 Y30.549
X38.155 Y31.074
X38.166 Y31.604
X38.134 Y32.133
X38.059 Y32.66
X37.943 Y33.18
X37.784 Y33.69
X37.585 Y34.187
X37.345 Y34.667
X37.068 Y35.128
X36.754 Y35.566
X36.404 Y35.978
X36.022 Y36.362
X35.61 Y36.714
X35.169 Y37.033
X34.704 Y37.316
X34.216 Y37.562
X33.709 Y37.768
X33.186 Y37.932
X32.65 Y38.055
X32.105 Y38.135
X31.554 Y38.17
X31.001 Y38.161
X30.449 Y38.108
X29.902 Y38.01
X29.363 Y37.869
X28.836 Y37.684
X28.325 Y37.457
X27.833 Y37.189
X27.362 Y36.882
X26.917 Y36.538
X26.5 Y36.158
X26.114 Y35.745
X25.762 Y35.301
X25.446 Y34.829
X25.168 Y34.333
X24.93 Y33.815
X24.735 Y33.278
X24.582 Y32.726
X24.475 Y32.163
X24.412 Y31.591
X24.396 Y31.015
X24.426 Y30.438
X24.502 Y29.864
X24.625 Y29.298
X24.793 Y28.741
X25.005 Y28.199
X25.261 Y27.674
X25.559 Y27.171
X25.897 Y26.692
X26.272 Y26.241
X26.684 Y25.821
X27.129 Y25.434
X27.605 Y25.083
X28.108 Y24.771
X28.636 Y24.5
X29.185 Y24.272
X29.752 Y24.089
X30.332 Y23.951
X30.923 Y23.86
X31.521 Y23.816
X32.121 Y23.821
X32.721 Y23.874
X33.315 Y23.975
X33.9 Y24.123
X34.473 Y24.319
X35.029 Y24.56
X35.566 Y24.846
X36.078 Y25.175
X36.564 Y25.545
X37.019 Y25.953
X37.441 Y26.397
X37.827 Y26.874
X38.173 Y27.383
X38.479 Y27.918
X38.741 Y28.477
X38.958 Y29.057
X39.128 Y29.653
X39.249 Y30.262
X39.322 Y30.881
X39.345 Y31.504
X39.317 Y32.128
X39.24 Y32.75
X39.112 Y33.364
X38.936 Y33.967
X38.711 Y34.556
X38.439 Y35.125
X38.122 Y35.672
X37.761 Y36.193
X37.358 Y36.684
X36.917 Y37.142
X36.439 Y37.564
X35.928 Y37.946
X35.388 Y38.288
X34.82 Y38.585
X34.229 Y38.836
X33.619 Y39.04
X32.993 Y39.194
X32.356 Y39.298
X31.711 Y39.35
X31.063
X30.415 Y39.298
X29.773 Y39.195
X29.14 Y39.039
X28.52 Y38.833
X27.918 Y38.578
X27.337 Y38.274
X26.781 Y37.924
X26.254 Y37.53
X25.76 Y37.094
X25.301 Y36.619
X24.881 Y36.108
X24.503 Y35.563
X24.169 Y34.989
X23.882 Y34.389
X23.643 Y33.767
X23.455 Y33.126
X23.318 Y32.471
X23.235 Y31.806
X23.204 Y31.135
X23.228 Y30.462
X23.306 Y29.793
X23.438 Y29.13
X23.623 Y28.479
X23.86 Y27.844
X24.147 Y27.229
X24.484 Y26.638
X24.868 Y26.075
X25.296 Y25.543
X25.767 Y25.047
X26.277 Y24.589
X26.822 Y24.172
X27.401 Y23.801
X28.009 Y23.476
X28.641 Y23.201
X29.295 Y22.977
X29.966 Y22.805
X30.65 Y22.689
X31.342 Y22.627
X32.038 Y22.621
X32.734 Y22.671
X33.425 Y22.776
X34.106 Y22.937
X34.773 Y23.153
X35.421 Y23.422
X36.048 Y23.743
X36.647 Y24.113
X37.216 Y24.532
X37.75 Y24.995
X38.246 Y25.501
X38.701 Y26.045
X39.112 Y26.626
X39.475 Y27.239
X39.788 Y27.88
X40.05 Y28.545
X40.257 Y29.23
X40.409 Y29.931
X40.505 Y30.644
X40.543 Y31.362
X40.523 Y32.083
X40.446 Y32.801
X40.31 Y33.512
X40.118 Y34.211
X39.87 Y34.893
X39.568 Y35.554
X39.212 Y36.19
X38.806 Y36.797
X38.353 Y37.369
X37.853 Y37.905
X37.312 Y38.399
X36.731 Y38.85
X36.115 Y39.252
X35.468 Y39.605
X34.794 Y39.905
X34.098 Y40.15
X33.385 Y40.338
X32.659 Y40.469
X31.924 Y40.541
X31.187 Y40.555
X30.45 Y40.51
X29.72 Y40.407
X29. Y40.246
X28.295 Y40.028
X27.609 Y39.756
X26.947 Y39.43
X26.313 Y39.054
X25.71 Y38.628
X25.142 Y38.157
X24.613 Y37.642
X24.126 Y37.088
X23.684 Y36.498
X23.289 Y35.874
X22.944 Y35.222
X22.65 Y34.545
X22.41 Y33.848
X22.225 Y33.134
X22.095 Y32.407
X22.022 Y31.673
X22.005 Y30.935
X22.045 Y30.199
X22.142 Y29.467
X22.294 Y28.745
X22.501 Y28.037
X22.762 Y27.347
X23.074 Y26.679
X23.438 Y26.036
X23.85 Y25.424
X24.307 Y24.845
X24.807 Y24.303
X25.347 Y23.8
X25.923 Y23.339
X26.532 Y22.923
X27.171 Y22.554
X27.836 Y22.234
X28.523 Y21.965
X29.228 Y21.748
X29.948 Y21.584
X30.677 Y21.474
X31.413 Y21.419
X32.151 Y21.418
X32.886 Y21.473
X33.616 Y21.584
X34.335 Y21.75
X35.04 Y21.969
X35.726 Y22.239
X36.39 Y22.56
X37.03 Y22.928
X37.64 Y23.343
X38.218 Y23.801
X38.762 Y24.3
X39.267 Y24.837
X39.732 Y25.41
X40.154 Y26.015
X40.53 Y26.651
X40.857 Y27.312
X41.134 Y27.996
X41.361 Y28.698
X41.536 Y29.415
X41.659 Y30.142
X41.729 Y30.877
X41.746 Y31.614
X41.711 Y32.351
X41.623 Y33.084
X41.482 Y33.808
X41.287 Y34.52
X41.041 Y35.215
X40.745 Y35.891
X40.402 Y36.544
X40.013 Y37.171
X39.581 Y37.769
X39.107 Y38.335
X38.595 Y38.866
X38.047 Y39.36
X37.464 Y39.812
X36.849 Y40.22
X36.207 Y40.583
X35.54 Y40.899
X34.853 Y41.169
X34.149 Y41.39
X33.432 Y41.561
X32.704 Y41.682
X31.969 Y41.75
X31.232 Y41.765
X30.495 Y41.727
X29.762 Y41.637
X29.038 Y41.497
X28.325 Y41.307
X27.627 Y41.068
X26.947 Y40.781
X26.289 Y40.449
X25.655 Y40.07
X25.051 Y39.646
X24.478 Y39.182
X23.939 Y38.678
X23.435 Y38.139
X22.969 Y37.567
X22.544 Y36.964
X22.16 Y36.334
X21.821 Y35.679
X21.529 Y35.001
X21.285 Y34.305
X21.09 Y33.593
X20.945 Y32.87
X20.849 Y32.138
X20.802 Y31.402
X20.805 Y30.664
X20.857 Y29.928
X20.96 Y29.197
X21.113 Y28.476
X21.316 Y27.766
X21.567 Y27.073
X21.865 Y26.398
X22.208 Y25.745
X22.594 Y25.116
X23.022 Y24.514
X23.489 Y23.943
X23.993 Y23.404
X24.533 Y22.902
X25.106 Y22.438
X25.71 Y22.013
X26.341 Y21.631
X26.995 Y21.29
X27.671 Y20.994
X28.365 Y20.743
X29.074 Y20.537
X29.794 Y20.379
X30.524 Y20.271
X31.26 Y20.212
X31.997 Y20.203
X32.734 Y20.243
X33.466 Y20.333
X34.191 Y20.47
X34.906 Y20.655
X35.606 Y20.887
X36.29 Y21.163
X36.954 Y21.485
X37.594 Y21.852
X38.209 Y22.26
X38.796 Y22.707
X39.352 Y23.191
X39.877 Y23.71
X40.366 Y24.262
X40.82 Y24.844
X41.234 Y25.455
X41.607 Y26.092
X41.935 Y26.753
X42.218 Y27.434
X42.456 Y28.132
X42.649 Y28.844
X42.795 Y29.567
X42.896 Y30.298
X42.949 Y31.034
X42.956 Y31.772
X42.916 Y32.509
X42.828 Y33.241
X42.69 Y33.966
X42.504 Y34.68
X42.273 Y35.381
X41.997 Y36.065
X41.678 Y36.731
X41.319 Y37.375
X40.919 Y37.995
X40.481 Y38.589
X40.006 Y39.154
X39.495 Y39.686
X38.951 Y40.184
X38.375 Y40.645
X37.771 Y41.068
X37.141 Y41.453
X36.488 Y41.797
X35.815 Y42.099
X35.125 Y42.359
X34.42 Y42.576
X33.702 Y42.747
X32.974 Y42.871
X32.241 Y42.948
X31.503 Y42.977
X30.766 Y42.96
X30.031 Y42.897
X29.301 Y42.788
X28.579 Y42.635
X27.868 Y42.437
X27.171 Y42.196
X26.491 Y41.91
X25.83 Y41.582
X25.192 Y41.212
X24.578 Y40.802
X23.991 Y40.355
X23.433 Y39.873
X22.905 Y39.357
X22.41 Y38.81
X21.949 Y38.234
X21.525 Y37.63
X21.14 Y37.001
X20.795 Y36.348
X20.493 Y35.675
X20.232 Y34.985
X20.015 Y34.28
X19.841 Y33.563
X19.711 Y32.837
X19.625 Y32.104
X19.584 Y31.367
X19.587 Y30.629
X19.638 Y29.893
X19.734 Y29.162
X19.875 Y28.438
X20.06 Y27.724
X20.289 Y27.022
X20.56 Y26.336
X20.872 Y25.667
X21.224 Y25.019
X21.614 Y24.392
X22.042 Y23.791
X22.506 Y23.218
X23.005 Y22.674
X23.537 Y22.163
X24.099 Y21.685
X24.688 Y21.241
X25.303 Y20.834
X25.942 Y20.463
X26.601 Y20.132
X27.278 Y19.839
X27.972 Y19.589
X28.68 Y19.381
X29.399 Y19.217
X30.127 Y19.096
X30.861 Y19.02
X31.598 Y18.988
X32.336 Y19.
X33.072 Y19.056
X33.803 Y19.155
X34.527 Y19.297
X35.241 Y19.483
X35.942 Y19.712
X36.628 Y19.983
X37.297 Y20.295
X37.946 Y20.647
X38.572 Y21.036
X39.175 Y21.461
X39.752 Y21.921
X40.302 Y22.413
X40.822 Y22.937
X41.31 Y23.49
X41.765 Y24.071
X42.183 Y24.679
X42.564 Y25.311
X42.906 Y25.965
X43.208 Y26.637
X43.471 Y27.327
X43.693 Y28.03
X43.874 Y28.746
X44.014 Y29.47
X44.112 Y30.201
X44.167 Y30.937
X44.178 Y31.675
X44.145 Y32.412
X44.069 Y33.146
X43.95 Y33.874
X43.788 Y34.594
X43.584 Y35.303
X43.34 Y35.999
X43.056 Y36.68
X42.734 Y37.344
X42.374 Y37.988
X41.977 Y38.61
X41.544 Y39.207
X41.077 Y39.779
X40.578 Y40.322
X40.048 Y40.835
X39.489 Y41.317
X38.904 Y41.766
X38.293 Y42.18
X37.66 Y42.559
X37.007 Y42.902
X36.334 Y43.206
X35.646 Y43.47
X34.943 Y43.695
X34.228 Y43.878
X33.504 Y44.02
X32.773 Y44.12
X32.038 Y44.178
X31.3 Y44.194
X30.563 Y44.169
X29.828 Y44.102
X29.098 Y43.993
X28.376 Y43.842
X27.663 Y43.65
X26.963 Y43.418
X26.277 Y43.146
X25.608 Y42.836
X24.957 Y42.488
X24.327 Y42.104
X23.72 Y41.685
X23.137 Y41.232
X22.58 Y40.748
X22.052 Y40.233
X21.555 Y39.688
X21.088 Y39.116
X20.655 Y38.519
X20.256 Y37.899
X19.892 Y37.257
X19.566 Y36.595
X19.277 Y35.916
X19.026 Y35.222
X18.814 Y34.516
X18.642 Y33.798
X18.511 Y33.072
X18.42 Y32.34
X18.371 Y31.604
X18.362 Y30.866
X18.395 Y30.129
X18.469 Y29.395
X18.584 Y28.666
X18.739 Y27.945
X18.934 Y27.233
X19.168 Y26.533
X19.44 Y25.847
X19.75 Y25.178
X20.097 Y24.527
X20.48 Y23.896
X20.898 Y23.288
X21.348 Y22.703
X21.83 Y22.145
X22.343 Y21.614
X22.884 Y21.112
X23.451 Y20.641
X24.043 Y20.201
X24.659 Y19.794
X25.296 Y19.422
X25.953 Y19.086
X26.627 Y18.786
X27.316 Y18.523
X28.019 Y18.299
X28.733 Y18.113
X29.457 Y17.967
X30.187 Y17.86
X30.921 Y17.793
X31.659 Y17.765
X32.396 Y17.778
X33.132 Y17.833
X33.864 Y17.927
X34.589 Y18.061
X35.307 Y18.235
X36.013 Y18.447
X36.707 Y18.698
X37.386 Y18.986
X38.049 Y19.31
X38.693 Y19.67
X39.317 Y20.063
X39.92 Y20.49
X40.498 Y20.948
X41.05 Y21.437
X41.575 Y21.955
X42.072 Y22.501
X42.539 Y23.072
X42.974 Y23.668
X43.376 Y24.287
X43.744 Y24.926
X44.077 Y25.585
X44.375 Y26.26
X44.636 Y26.95
X44.859 Y27.653
X45.044 Y28.367
X45.19 Y29.091
X45.298 Y29.82
X45.368 Y30.555
X45.398 Y31.292
X45.388 Y32.03
X45.34 Y32.766
X45.252 Y33.499
X45.126 Y34.226
X44.961 Y34.945
X44.757 Y35.654
X44.516 Y36.351
X44.238 Y37.035
X43.924 Y37.702
X43.575 Y38.353
X43.193 Y38.984
X42.778 Y39.594
X42.331 Y40.181
X41.854 Y40.744
X41.349 Y41.281
X40.815 Y41.791
X40.256 Y42.272
X39.671 Y42.722
X39.063 Y43.14
X38.434 Y43.526
X37.786 Y43.878
X37.12 Y44.196
X36.439 Y44.479
X35.744 Y44.726
X35.036 Y44.936
X34.319 Y45.109
X33.594 Y45.244
X32.863 Y45.342
X32.127 Y45.4
X31.389 Y45.419
X30.652 Y45.4
X29.916 Y45.342
X29.185 Y45.246
X28.459 Y45.112
X27.741 Y44.941
X27.034 Y44.733
X26.337 Y44.489
X25.655 Y44.209
X24.987 Y43.894
X24.337 Y43.545
X23.707 Y43.162
X23.097 Y42.746
X22.51 Y42.3
X21.947 Y41.823
X21.408 Y41.319
X20.897 Y40.787
X20.413 Y40.23
X19.959 Y39.649
X19.535 Y39.045
X19.142 Y38.42
X18.782 Y37.776
X18.456 Y37.114
X18.165 Y36.436
X17.909 Y35.744
X17.689 Y35.04
X17.506 Y34.325
X17.359 Y33.602
X17.249 Y32.873
X17.177 Y32.138
X17.141 Y31.401
X17.144 Y30.664
X17.183 Y29.927
X17.26 Y29.193
X17.375 Y28.464
X17.527 Y27.742
X17.717 Y27.029
X17.942 Y26.327
X18.203 Y25.636
X18.498 Y24.96
X18.827 Y24.3
X19.19 Y23.657
X19.584 Y23.034
X20.009 Y22.431
X20.464 Y21.85
X20.948 Y21.293
X21.46 Y20.762
X21.999 Y20.258
X22.563 Y19.782
X23.149 Y19.334
X23.758 Y18.917
X24.387 Y18.531
X25.034 Y18.177
X25.698 Y17.855
X26.377 Y17.567
X27.07 Y17.313
X27.775 Y17.094
X28.489 Y16.911
X29.212 Y16.764
X29.942 Y16.654
X30.676 Y16.581
X31.413 Y16.545
X32.151
X32.888 Y16.583
X33.622 Y16.658
X34.351 Y16.768
X35.074 Y16.915
X35.789 Y17.098
X36.494 Y17.316
X37.187 Y17.569
X37.866 Y17.856
X38.53 Y18.178
X39.178 Y18.533
X39.806 Y18.918
X40.415 Y19.335
X41.003 Y19.781
X41.568 Y20.255
X42.109 Y20.757
X42.625 Y21.284
X43.115 Y21.836
X43.577 Y22.412
X44.009 Y23.009
X44.412 Y23.628
X44.782 Y24.266
X45.119 Y24.922
X45.425 Y25.594
X45.696 Y26.28
X45.934 Y26.978
X46.137 Y27.688
X46.305 Y28.406
X46.438 Y29.132
X46.536 Y29.863
X46.599 Y30.598
X46.625 Y31.335
X46.615 Y32.073
X46.569 Y32.81
X46.485 Y33.543
X46.366 Y34.271
X46.211 Y34.992
X46.021 Y35.705
X45.797 Y36.408
X45.538 Y37.099
X45.247 Y37.777
X44.923 Y38.44
X44.567 Y39.086
X44.181 Y39.715
X43.765 Y40.324
X43.319 Y40.912
X42.845 Y41.477
X42.344 Y42.019
X41.817 Y42.535
X41.265 Y43.025
X40.691 Y43.488
X40.094 Y43.923
X39.478 Y44.328
X38.843 Y44.703
X38.19 Y45.047
X37.522 Y45.36
X36.839 Y45.641
X36.144 Y45.887
X35.438 Y46.1
X34.721 Y46.278
X33.998 Y46.421
X33.268 Y46.529
X32.534 Y46.602
X31.797 Y46.639
X31.059 Y46.641
X30.322 Y46.607
X29.587 Y46.539
X28.857 Y46.436
X28.132 Y46.298
X27.414 Y46.126
X26.706 Y45.919
X26.009 Y45.678
X25.324 Y45.403
X24.653 Y45.097
X23.997 Y44.759
X23.358 Y44.389
X22.738 Y43.99
X22.137 Y43.561
X21.558 Y43.105
X21. Y42.621
X20.466 Y42.112
X19.956 Y41.579
X19.473 Y41.022
X19.017 Y40.442
X18.589 Y39.84
X18.19 Y39.22
X17.822 Y38.581
X17.483 Y37.925
X17.177 Y37.254
X16.902 Y36.569
X16.66 Y35.872
X16.452 Y35.164
X16.276 Y34.448
X16.134 Y33.724
X16.026 Y32.994
X15.953 Y32.26
X15.915 Y31.523
X15.912 Y30.785
X15.943 Y30.048
X16.01 Y29.313
X16.11 Y28.582
X16.246 Y27.857
X16.415 Y27.139
X16.617 Y26.429
X16.852 Y25.73
X17.12 Y25.042
X17.419 Y24.368
X17.75 Y23.708
X18.111 Y23.065
X18.503 Y22.44
X18.923 Y21.834
X19.372 Y21.248
X19.847 Y20.683
X20.349 Y20.142
X20.875 Y19.625
X21.424 Y19.133
X21.996 Y18.666
X22.589 Y18.227
X23.201 Y17.815
X23.832 Y17.432
X24.479 Y17.079
X25.143 Y16.756
X25.821 Y16.465
X26.512 Y16.206
X27.214 Y15.979
X27.925 Y15.784
X28.645 Y15.623
X29.372 Y15.495
X30.104 Y15.401
X30.839 Y15.341
X31.576 Y15.314
X32.314 Y15.322
X33.051 Y15.363
X33.785 Y15.438
X34.515 Y15.548
X35.238 Y15.692
X35.954 Y15.869
X36.662 Y16.078
X37.359 Y16.32
X38.044 Y16.594
X38.716 Y16.9
X39.373 Y17.236
X40.014 Y17.601
X40.637 Y17.995
X41.242 Y18.417
X41.828 Y18.866
X42.392 Y19.341
X42.934 Y19.842
X43.452 Y20.367
X43.946 Y20.916
X44.414 Y21.486
X44.856 Y22.077
X45.269 Y22.688
X45.655 Y23.317
X46.011 Y23.963
X46.337 Y24.625
X46.633 Y25.301
X46.898 Y25.99
X47.132 Y26.689
X47.334 Y27.399
X47.503 Y28.117
X47.638 Y28.842
X47.741 Y29.573
X47.811 Y30.308
X47.848 Y31.044
X47.852 Y31.782
X47.821 Y32.519
X47.757 Y33.255
X47.661 Y33.986
X47.531 Y34.712
X47.368 Y35.432
X47.174 Y36.144
X46.947 Y36.846
X46.689 Y37.537
X46.4 Y38.216
X46.08 Y38.881
X45.73 Y39.53
X45.352 Y40.164
X44.946 Y40.78
X44.513 Y41.377
X44.053 Y41.954
X43.568 Y42.51
X43.058 Y43.043
X42.525 Y43.553
X41.97 Y44.039
X41.393 Y44.5
X40.797 Y44.934
X40.181 Y45.341
X39.548 Y45.719
X38.898 Y46.068
X38.233 Y46.389
X37.555 Y46.68
X36.865 Y46.94
X36.163 Y47.168
X35.452 Y47.366
X34.733 Y47.531
X34.008 Y47.665
X33.277 Y47.766
X32.542 Y47.834
X31.805 Y47.87
X31.067 Y47.873
X30.33 Y47.842
X29.595 Y47.778
X28.864 Y47.682
X28.137 Y47.554
X27.417 Y47.394
X26.704 Y47.202
X26.001 Y46.979
X25.309 Y46.725
X24.628 Y46.44
X23.96 Y46.126
X23.307 Y45.783
X22.67 Y45.411
X22.05 Y45.011
X21.448 Y44.584
X20.866 Y44.13
X20.305 Y43.652
X19.765 Y43.149
X19.248 Y42.623
X18.754 Y42.075
X18.285 Y41.505
X17.841 Y40.915
X17.424 Y40.307
X17.033 Y39.681
X16.671 Y39.038
X16.337 Y38.38
X16.032 Y37.709
X15.757 Y37.024
X15.513 Y36.328
X15.3 Y35.621
X15.118 Y34.906
X14.967 Y34.184
X14.847 Y33.456
X14.759 Y32.723
X14.704 Y31.988
X14.681 Y31.25
X14.689 Y30.512
X14.73 Y29.776
X14.803 Y29.042
X14.907 Y28.311
X15.043 Y27.586
X15.212 Y26.868
X15.411 Y26.157
X15.642 Y25.457
X15.903 Y24.766
X16.193 Y24.088
X16.513 Y23.423
X16.861 Y22.772
X17.237 Y22.138
X17.64 Y21.52
X18.07 Y20.92
X18.525 Y20.339
X19.005 Y19.779
X19.508 Y19.24
X20.035 Y18.723
X20.584 Y18.23
X21.153 Y17.761
X21.743 Y17.317
X22.351 Y16.899
X22.976 Y16.508
X23.618 Y16.143
X24.274 Y15.807
X24.945 Y15.499
X25.628 Y15.22
X26.322 Y14.971
X27.027 Y14.751
X27.74 Y14.562
X28.461 Y14.403
X29.187 Y14.276
X29.919 Y14.181
X30.654 Y14.117
X31.391 Y14.085
X32.129
X32.866 Y14.116
X33.601 Y14.179
X34.333 Y14.273
X35.06 Y14.399
X35.781 Y14.555
X36.495 Y14.742
X37.2 Y14.96
X37.895 Y15.207
X38.579 Y15.483
X39.251 Y15.789
X39.908 Y16.123
X40.551 Y16.486
X41.177 Y16.876
X41.787 Y17.291
X42.379 Y17.732
X42.951 Y18.198
X43.503 Y18.687
X44.034 Y19.2
X44.543 Y19.734
X45.028 Y20.289
X45.49 Y20.865
X45.927 Y21.459
X46.338 Y22.072
X46.723 Y22.701
X47.08 Y23.347
X47.409 Y24.007
X47.71 Y24.681
X47.982 Y25.367
X48.225 Y26.064
X48.438 Y26.77
X48.622 Y27.485
X48.775 Y28.206
X48.898 Y28.934
X48.99 Y29.666
X49.052 Y30.401
X49.082 Y31.138
Y31.876
X49.051 Y32.613
X48.988 Y33.348
X48.894 Y34.08
X48.769 Y34.807
X48.613 Y35.528
X48.427 Y36.243
X48.212 Y36.948
X47.967 Y37.644
X47.693 Y38.329
X47.391 Y39.002
X47.061 Y39.662
X46.704 Y40.308
X46.32 Y40.938
X45.911 Y41.552
X45.476 Y42.148
X45.017 Y42.725
X44.533 Y43.282
X44.026 Y43.819
X43.497 Y44.333
X42.948 Y44.825
X42.378 Y45.294
X41.789 Y45.739
X41.183 Y46.159
X40.559 Y46.553
X39.919 Y46.921
X39.265 Y47.262
X38.597 Y47.576
X37.917 Y47.862
X37.226 Y48.12
X36.524 Y48.348
X35.814 Y48.547
X35.096 Y48.716
X34.371 Y48.854
X33.641 Y48.963
X32.908 Y49.041
X32.171 Y49.089
X31.434 Y49.107
X30.696 Y49.093
X29.959 Y49.049
X29.225 Y48.975
X28.495 Y48.871
X27.769 Y48.737
X27.05 Y48.574
X26.338 Y48.381
X25.634 Y48.158
X24.941 Y47.906
X24.259 Y47.626
X23.588 Y47.317
X22.931 Y46.981
X22.289 Y46.619
X21.661 Y46.231
X21.051 Y45.817
X20.457 Y45.378
X19.883 Y44.915
X19.328 Y44.429
X18.792 Y43.921
X18.278 Y43.392
X17.787 Y42.842
X17.318 Y42.272
X16.873 Y41.684
X16.453 Y41.077
X16.058 Y40.454
X15.689 Y39.815
X15.347 Y39.161
X15.031 Y38.494
X14.743 Y37.815
X14.483 Y37.124
X14.252 Y36.424
X14.049 Y35.715
X13.875 Y34.998
X13.73 Y34.274
X13.614 Y33.545
X13.528 Y32.813
X13.472 Y32.077
X13.447 Y31.34
X13.452 Y30.602
X13.487 Y29.865
X13.552 Y29.13
X13.646 Y28.398
X13.77 Y27.671
X13.924 Y26.949
X14.106 Y26.234
X14.318 Y25.527
X14.558 Y24.83
X14.826 Y24.142
X15.121 Y23.466
X15.444 Y22.803
X15.793 Y22.153
X16.168 Y21.517
X16.57 Y20.898
X16.996 Y20.296
X17.446 Y19.711
X17.919 Y19.145
X18.415 Y18.599
X18.932 Y18.073
X19.471 Y17.568
X20.029 Y17.086
X20.606 Y16.626
X21.201 Y16.19
X21.813 Y15.778
X22.441 Y15.391
X23.084 Y15.029
X23.741 Y14.693
X24.411 Y14.384
X25.093 Y14.103
X25.786 Y13.849
X26.488 Y13.623
X27.199 Y13.426
X27.917 Y13.257
X28.642 Y13.117
X29.371 Y13.006
X30.105 Y12.924
X30.841 Y12.872
X31.578 Y12.849
X32.316 Y12.856
X33.053 Y12.892
X33.788 Y12.957
X34.519 Y13.052
X35.247 Y13.176
X35.968 Y13.33
X36.683 Y13.513
X37.39 Y13.724
X38.088 Y13.962
X38.776 Y14.229
X39.453 Y14.522
X40.118 Y14.843
X40.769 Y15.19
X41.406 Y15.562
X42.028 Y15.959
X42.633 Y16.38
X43.222 Y16.825
X43.793 Y17.293
X44.345 Y17.782
X44.876 Y18.294
X45.387 Y18.827
X45.876 Y19.379
X46.343 Y19.951
X46.787 Y20.54
X47.207 Y21.146
X47.603 Y21.769
X47.973 Y22.407
X48.318 Y23.059
X48.637 Y23.725
X48.929 Y24.402
X49.195 Y25.091
X49.433 Y25.789
X49.644 Y26.496
X49.827 Y27.211
X49.981 Y27.932
X50.106 Y28.659
X50.203 Y29.391
X50.271 Y30.125
X50.31 Y30.862
X50.32 Y31.6
X50.301 Y32.338
X50.253 Y33.074
X50.176 Y33.808
X50.07 Y34.538
X49.935 Y35.263
X49.772 Y35.983
X49.582 Y36.696
X49.363 Y37.4
X49.118 Y38.096
X48.844 Y38.781
X48.544 Y39.455
X48.218 Y40.117
X47.866 Y40.765
X47.489 Y41.4
X47.087 Y42.019
X46.662 Y42.622
X46.214 Y43.208
X45.743 Y43.775
X45.25 Y44.324
X44.736 Y44.854
X44.201 Y45.363
X43.648 Y45.851
X43.076 Y46.317
X42.486 Y46.76
X41.88 Y47.18
X41.257 Y47.576
X40.619 Y47.946
X39.967 Y48.292
X39.303 Y48.612
X38.626 Y48.907
X37.939 Y49.175
X37.241 Y49.416
X36.535 Y49.63
X35.821 Y49.816
X35.101 Y49.974
X34.374 Y50.104
X33.644 Y50.206
X32.909 Y50.28
X32.173 Y50.326
X31.435 Y50.343
X30.698 Y50.331
X29.961 Y50.29
X29.227 Y50.22
X28.495 Y50.122
X27.768 Y49.996
X27.047 Y49.843
X26.331 Y49.661
X25.624 Y49.453
X24.925 Y49.217
X24.235 Y48.954
X23.557 Y48.664
X22.889 Y48.349
X22.235 Y48.009
X21.594 Y47.644
X20.967 Y47.254
X20.356 Y46.84
X19.762 Y46.403
X19.185 Y45.943
X18.626 Y45.461
X18.086 Y44.958
X17.566 Y44.436
X17.066 Y43.893
X16.587 Y43.332
X16.13 Y42.753
X15.695 Y42.156
X15.284 Y41.544
X14.897 Y40.916
X14.533 Y40.274
X14.195 Y39.618
X13.881 Y38.95
X13.594 Y38.271
X13.333 Y37.581
X13.099 Y36.881
X12.892 Y36.173
X12.712 Y35.457
X12.559 Y34.735
X12.433 Y34.008
X12.336 Y33.277
X12.266 Y32.543
X12.225 Y31.806
X12.211 Y31.068
X12.226 Y30.33
X12.268 Y29.594
X12.339 Y28.859
X12.437 Y28.128
X12.563 Y27.401
X12.716 Y26.679
X12.898 Y25.964
X13.106 Y25.257
X13.342 Y24.557
X13.604 Y23.868
X13.891 Y23.188
X14.204 Y22.52
X14.542 Y21.864
X14.905 Y21.222
X15.292 Y20.594
X15.703 Y19.981
X16.136 Y19.384
X16.592 Y18.803
X17.069 Y18.241
X17.567 Y17.696
X18.085 Y17.171
X18.623 Y16.666
X19.18 Y16.182
X19.755 Y15.72
X20.347 Y15.28
X20.956 Y14.862
X21.579 Y14.467
X22.216 Y14.096
X22.867 Y13.749
X23.531 Y13.426
X24.207 Y13.129
X24.893 Y12.858
X25.588 Y12.612
X26.293 Y12.393
X27.005 Y12.2
X27.724 Y12.034
X28.448 Y11.894
X29.178 Y11.783
X29.911 Y11.699
X30.646 Y11.644
X31.384 Y11.616
X32.122 Y11.615
X32.859 Y11.642
X33.595 Y11.696
X34.328 Y11.778
X35.058 Y11.888
X35.783 Y12.025
X36.502 Y12.189
X37.215 Y12.379
X37.92 Y12.597
X38.616 Y12.84
X39.304 Y13.109
X39.98 Y13.403
X40.645 Y13.723
X41.297 Y14.068
X41.936 Y14.437
X42.561 Y14.829
X43.171 Y15.244
X43.765 Y15.682
X44.342 Y16.141
X44.903 Y16.621
X45.444 Y17.122
X45.967 Y17.643
X46.47 Y18.182
X46.953 Y18.74
X47.415 Y19.316
X47.855 Y19.908
X48.273 Y20.516
X48.668 Y21.139
X49.039 Y21.777
X49.386 Y22.428
X49.708 Y23.092
X50.005 Y23.767
X50.277 Y24.453
X50.524 Y25.148
X50.745 Y25.852
X50.94 Y26.564
X51.109 Y27.282
X51.251 Y28.006
X51.366 Y28.735
X51.454 Y29.467
X51.483 Y29.829
X51.485 Y29.87
Y32.132
X51.411 Y33.606
X51.334 Y34.34
X51.223 Y35.069
X51.081 Y35.793
X50.911 Y36.511
X50.714 Y37.222
X50.491 Y37.925
X50.241 Y38.62
X49.966 Y39.304
X49.666 Y39.978
X49.341 Y40.641
X48.991 Y41.29
X48.618 Y41.927
X48.221 Y42.549
X47.802 Y43.156
X47.361 Y43.748
X46.899 Y44.323
X46.416 Y44.88
X45.913 Y45.42
X45.39 Y45.941
X44.85 Y46.443
X44.291 Y46.925
X43.715 Y47.386
X43.122 Y47.826
X42.514 Y48.243
X41.891 Y48.639
X41.254 Y49.01
X40.603 Y49.358
X39.94 Y49.682
X39.266 Y49.981
X38.581 Y50.255
X37.886 Y50.505
X37.183 Y50.729
X36.473 Y50.927
X35.755 Y51.099
X35.298 Y51.192
X35.25 Y51.2
X35.201 Y51.205
X35.151 Y51.206
X28.722
X27.985 Y51.169
X27.251 Y51.09
X26.526 Y50.956
X25.809 Y50.782
X25.101 Y50.574
X24.402 Y50.338
X23.713 Y50.075
X23.034 Y49.786
X22.366 Y49.472
X21.71 Y49.133
X21.068 Y48.771
X20.439 Y48.385
X19.824 Y47.977
X19.225 Y47.547
X18.641 Y47.095
X18.075 Y46.622
X17.525 Y46.13
X16.994 Y45.618
X16.481 Y45.088
X15.988 Y44.539
X15.514 Y43.973
X15.062 Y43.391
X14.63 Y42.792
X14.22 Y42.179
X13.833 Y41.551
X13.468 Y40.909
X13.128 Y40.255
X12.811 Y39.589
X12.518 Y38.911
X12.25 Y38.224
X12.007 Y37.527
X11.79 Y36.822
X11.685 Y36.435
X11.671 Y36.372
X11.662 Y36.307
X11.659 Y36.242
Y27.102
X11.695 Y26.396
X11.776 Y25.776
X11.93 Y25.055
X12.135 Y24.346
X12.376 Y23.648
X12.648 Y22.963
X12.948 Y22.288
X13.272 Y21.626
X13.621 Y20.976
X13.994 Y20.339
X14.389 Y19.716
X14.806 Y19.107
X15.244 Y18.513
X15.703 Y17.936
X16.182 Y17.375
X16.681 Y16.831
X17.198 Y16.305
X17.735 Y15.799
X18.29 Y15.313
X18.862 Y14.847
X19.45 Y14.401
X20.054 Y13.976
X20.671 Y13.573
X21.303 Y13.192
X21.948 Y12.833
X22.605 Y12.498
X23.273 Y12.185
X23.952 Y11.897
X24.641 Y11.632
X25.252 Y11.422
X25.331 Y11.399
X25.411 Y11.386
X25.493 Y11.381
X36.937
X37.418 Y11.405
X37.929 Y11.472
X38.595 Y11.615
X39.302 Y11.826
X39.993 Y12.083
X40.671 Y12.374
X41.336 Y12.694
X41.988 Y13.039
X42.627 Y13.409
X43.252 Y13.801
X43.862 Y14.215
X44.458 Y14.651
X45.037 Y15.108
X45.6 Y15.585
X46.146 Y16.081
X46.675 Y16.596
X47.185 Y17.129
X47.676 Y17.68
X48.148 Y18.247
X48.599 Y18.83
X49.03 Y19.429
X49.441 Y20.042
X49.829 Y20.67
X50.195 Y21.31
X50.538 Y21.963
X50.858 Y22.628
X51.155 Y23.304
X51.428 Y23.989
X51.441 Y24.028
X51.465 Y24.109
X51.48 Y24.192
X51.485 Y24.277
Y29.87
G3 X51.383 Y30.104 I-0.317 J0.
G1 X51.343 Y30.148
X51.312 Y30.199
X51.291 Y30.255
X51.281 Y30.314
X51.261 Y30.598
X51.219 Y31.194
X51.221 Y31.258
X51.236 Y31.32
X51.263 Y31.378
G3 X51.485 Y32.132 I-1.36 J0.809
G1 Y37.497
X51.46 Y37.98
X51.401 Y38.43
X51.281 Y38.992
X51.069 Y39.699
X50.803 Y40.387
X50.497 Y41.058
X50.161 Y41.715
X49.798 Y42.357
X49.411 Y42.986
X49.002 Y43.6
X48.572 Y44.199
X48.121 Y44.783
X47.65 Y45.351
X47.159 Y45.902
X46.651 Y46.436
X46.124 Y46.953
X45.58 Y47.451
X45.019 Y47.931
X44.442 Y48.391
X43.849 Y48.83
X43.242 Y49.249
X42.62 Y49.646
X41.985 Y50.021
X41.336 Y50.374
X40.676 Y50.703
X40.006 Y51.011
X39.673 Y51.149
X39.581 Y51.181
X39.485 Y51.2
X39.388 Y51.206
X35.151
G3 X34.975 Y50.633 I0.011 J-0.317
G1 X35.032 Y50.591 Z32.008
X35.086 Y50.551 Z32.031
X35.134 Y50.516 Z32.069
X35.175 Y50.486 Z32.12
X35.205 Y50.464 Z32.18
X35.224 Y50.45 Z32.247
X35.231 Y50.445 Z32.318
G0 Z43.
X51.101 Y36.471
Z32.635
G1 Z32.318 F1016.
X51.105 Y36.478 Z32.247
X51.117 Y36.498 Z32.18
X51.136 Y36.53 Z32.12
X51.162 Y36.574 Z32.069
X51.193 Y36.625 Z32.031
X51.227 Y36.683 Z32.008
X51.263 Y36.744 Z32.
G3 X51.485 Y37.497 I-1.36 J0.809
G1 Y40.515
X51.468 Y40.841
X51.43 Y41.135
X51.35 Y41.508
X51.217 Y41.953
X50.993 Y42.527
X50.671 Y43.191
X50.302 Y43.83
X49.9 Y44.449
X49.472 Y45.05
X49.022 Y45.634
X48.551 Y46.202
X48.061 Y46.754
X47.553 Y47.289
X47.028 Y47.807
X46.486 Y48.307
X45.927 Y48.79
X45.354 Y49.254
X44.765 Y49.699
X44.162 Y50.124
X43.546 Y50.529
X42.916 Y50.914
X42.57 Y51.11
X42.454 Y51.163
X42.331 Y51.195
X42.205 Y51.206
X39.388
G3 X39.211 Y50.633 I0.011 J-0.317
G1 X39.268 Y50.591 Z32.008
X39.322 Y50.551 Z32.031
X39.371 Y50.516 Z32.069
X39.411 Y50.486 Z32.12
X39.442 Y50.464 Z32.18
X39.461 Y50.45 Z32.247
X39.467 Y50.445 Z32.318
G0 Z43.
X51.101 Y39.489
Z32.635
G1 Z32.318 F1016.
X51.105 Y39.496 Z32.247
X51.117 Y39.516 Z32.18
X51.136 Y39.548 Z32.12
X51.162 Y39.592 Z32.069
X51.193 Y39.643 Z32.031
X51.227 Y39.701 Z32.008
X51.263 Y39.762 Z32.
G3 X51.485 Y40.515 I-1.36 J0.809
G1 Y42.863
X51.468 Y43.193
X51.436 Y43.434
X51.372 Y43.736
X51.27 Y44.074
X51.101 Y44.51
X50.846 Y45.035
X50.471 Y45.671
X50.05 Y46.277
X49.597 Y46.859
X49.119 Y47.421
X48.62 Y47.964
X48.102 Y48.49
X47.568 Y48.999
X47.017 Y49.49
X46.452 Y49.964
X45.872 Y50.42
X45.278 Y50.858
X44.964 Y51.075
X44.833 Y51.147
X44.691 Y51.191
X44.543 Y51.206
X42.205
G3 X42.004 Y50.652 I0.011 J-0.317
G1 X42.027 Y50.632
X50.906 Y42.681
X50.955 Y42.637
G3 X51.485 Y42.863 I0.212 J0.237
G1 Y45.042
X51.473 Y45.266
X51.444 Y45.487
X51.39 Y45.742
X51.303 Y46.033
X51.162 Y46.393
X50.959 Y46.812
X50.652 Y47.334
X50.228 Y47.938
X49.761 Y48.509
X49.265 Y49.055
X48.747 Y49.58
X48.21 Y50.087
X47.657 Y50.575
X47.082 Y51.05
X46.943 Y51.135
X46.789 Y51.188
X46.627 Y51.206
G3 X46.387 Y50.694 I0.011 J-0.317
G1 X46.441 Y50.625
X50.911 Y44.865
X50.916 Y44.859
G3 X51.485 Y45.042 I0.251 J0.195
G1 Y47.054
X51.477 Y47.204
X51.448 Y47.409
X51.396 Y47.636
X51.308 Y47.916
X51.183 Y48.226
X50.991 Y48.61
X50.723 Y49.052
X50.318 Y49.614
X49.84 Y50.175
X49.328 Y50.707
X49.014 Y51.003
X48.864 Y51.114
X48.69 Y51.183
X48.505 Y51.206
G3 X48.255 Y50.708 I0.011 J-0.317
G1 X48.315 Y50.621
X50.906 Y46.884
G3 X51.485 Y47.054 I0.261 J0.181
G1 Y48.731
X51.472 Y48.987
X51.449 Y49.165
X51.404 Y49.373
X51.328 Y49.627
X51.222 Y49.899
X51.062 Y50.228
X50.839 Y50.608
X50.64 Y50.891
X50.521 Y51.023
X50.375 Y51.123
X50.209 Y51.185
X50.033 Y51.206
G3 X49.763 Y50.742 I0.011 J-0.317
G1 X49.83 Y50.613
X50.886 Y48.595
G3 X51.485 Y48.731 I0.281 J0.147
G1 Y50.5
X51.477 Y50.649
X51.422 Y50.827
X51.32 Y50.983
X51.178 Y51.103
X51.009 Y51.18
X50.825 Y51.206
G3 X50.597 Y50.68 I0.011 J-0.317
G1 X50.643 Y50.628
X50.91 Y50.322
X50.929 Y50.301
G3 X51.485 Y50.5 I0.239 J0.209
G1 Y50.743
X51.483 Y50.91
X51.476 Y50.952
X51.462 Y50.994
X51.442 Y51.036
X51.413 Y51.078
X51.385 Y51.109
X51.356 Y51.135
X51.314 Y51.164
X51.273 Y51.184
X51.231 Y51.197
X51.189 Y51.205
X51.021 Y51.206
X44.543
G3 X44.366 Y50.633 I0.011 J-0.317
G1 X44.423 Y50.591 Z32.008
X44.477 Y50.551 Z32.031
X44.526 Y50.516 Z32.069
X44.566 Y50.486 Z32.12
X44.597 Y50.464 Z32.18
X44.616 Y50.45 Z32.247
X44.622 Y50.445 Z32.318
G0 Z43.
X35.911 Y11.765
Z32.635
G1 Z32.318 F1016.
X35.918 Y11.761 Z32.247
X35.938 Y11.749 Z32.18
X35.97 Y11.729 Z32.12
X36.013 Y11.704 Z32.069
X36.065 Y11.673 Z32.031
X36.123 Y11.639 Z32.008
X36.184 Y11.603 Z32.
G3 X36.937 Y11.381 I0.809 J1.36
G1 X40.123
X40.489 Y11.4
X40.803 Y11.441
X41.211 Y11.528
X41.698 Y11.674
X42.329 Y11.92
X42.993 Y12.242
X43.635 Y12.605
X44.259 Y13.
X44.866 Y13.42
X45.456 Y13.862
X46.031 Y14.325
X46.589 Y14.807
X47.131 Y15.308
X47.656 Y15.826
X48.163 Y16.362
X48.653 Y16.914
X49.124 Y17.481
X49.577 Y18.064
X50.009 Y18.662
X50.422 Y19.274
X50.813 Y19.899
X51.184 Y20.537
X51.396 Y20.932
X51.445 Y21.043
X51.475 Y21.161
X51.485 Y21.283
Y24.277
G3 X50.911 Y24.454 I-0.317 J-0.011
G1 X50.869 Y24.397 Z32.008
X50.83 Y24.343 Z32.031
X50.794 Y24.294 Z32.069
X50.764 Y24.254 Z32.12
X50.742 Y24.223 Z32.18
X50.728 Y24.204 Z32.247
X50.723 Y24.198 Z32.318
G0 Z43.
X39.096 Y11.765
Z32.635
G1 Z32.318 F1016.
X39.103 Y11.761 Z32.247
X39.123 Y11.749 Z32.18
X39.156 Y11.729 Z32.12
X39.199 Y11.704 Z32.069
X39.251 Y11.673 Z32.031
X39.309 Y11.639 Z32.008
X39.369 Y11.603 Z32.
G3 X40.123 Y11.381 I0.809 J1.36
G1 X42.638
X42.931 Y11.396
X43.181 Y11.429
X43.495 Y11.496
X43.855 Y11.604
X44.316 Y11.783
X44.883 Y12.059
X45.519 Y12.433
X46.127 Y12.851
X46.713 Y13.299
X47.28 Y13.772
X47.829 Y14.265
X48.36 Y14.777
X48.875 Y15.306
X49.372 Y15.851
X49.852 Y16.411
X50.314 Y16.986
X50.758 Y17.576
X51.183 Y18.179
X51.363 Y18.452
X51.429 Y18.579
X51.471 Y18.716
X51.485 Y18.859
Y21.283
G3 X50.93 Y21.483 I-0.317 J-0.011
G1 X50.91 Y21.46
X42.456 Y11.96
X42.412 Y11.91
G3 X42.638 Y11.381 I0.237 J-0.211
G1 X44.817
X45.063 Y11.393
X45.287 Y11.423
X45.553 Y11.48
X45.852 Y11.569
X46.226 Y11.715
X46.664 Y11.927
X47.213 Y12.251
X47.816 Y12.675
X48.39 Y13.139
X48.94 Y13.631
X49.469 Y14.145
X49.98 Y14.677
X50.473 Y15.226
X50.948 Y15.791
X51.325 Y16.266
X51.412 Y16.406
X51.466 Y16.562
X51.485 Y16.726
Y18.859
G3 X50.93 Y19.059 I-0.317 J-0.011
G1 X50.91 Y19.037
X44.636 Y11.96
X44.591 Y11.909
G3 X44.817 Y11.381 I0.238 J-0.211
G1 X46.829
X47.005 Y11.39
X47.218 Y11.418
X47.44 Y11.465
X47.715 Y11.548
X48.032 Y11.671
X48.41 Y11.855
X48.86 Y12.12
X49.426 Y12.517
X49.994 Y12.989
X50.532 Y13.494
X51.046 Y14.023
X51.295 Y14.301
X51.398 Y14.448
X51.463 Y14.617
X51.485 Y14.796
G3 X50.983 Y15.043 I-0.317 J-0.011
G1 X50.901 Y14.984
X46.656 Y11.957
G3 X46.829 Y11.381 I0.184 J-0.258
G1 X48.674
X48.833 Y11.389
X49.011 Y11.413
X49.226 Y11.459
X49.488 Y11.537
X49.761 Y11.643
X50.106 Y11.811
X50.491 Y12.037
X50.973 Y12.376
X51.217 Y12.578
X51.361 Y12.739
X51.453 Y12.935
X51.485 Y13.148
G3 X51.008 Y13.412 I-0.317 J-0.011
G1 X50.895 Y13.346
X48.526 Y11.973
G3 X48.674 Y11.381 I0.159 J-0.275
G1 X50.35
X50.553 Y11.391
X50.724 Y11.414
X50.882 Y11.447
X50.956 Y11.47
X51.169 Y11.573
X51.338 Y11.737
X51.447 Y11.947
X51.485 Y12.18
G3 X51.007 Y12.443 I-0.317 J-0.011
G1 X50.895 Y12.377
X50.201 Y11.973
G3 X50.35 Y11.381 I0.16 J-0.274
G1 X51.021
X51.189 Y11.383
X51.231 Y11.39
X51.273 Y11.403
X51.314 Y11.423
X51.356 Y11.452
X51.385 Y11.478
X51.413 Y11.509
X51.442 Y11.551
X51.462 Y11.593
X51.476 Y11.635
X51.483 Y11.677
X51.485 Y11.845
Y16.726
G3 X50.911 Y16.903 I-0.317 J-0.011
G1 X50.869 Y16.846 Z32.008
X50.83 Y16.792 Z32.031
X50.794 Y16.743 Z32.069
X50.764 Y16.703 Z32.12
X50.742 Y16.672 Z32.18
X50.728 Y16.653 Z32.247
X50.723 Y16.647 Z32.318
G0 Z43.
X12.043 Y28.129
Z32.635
G1 Z32.318 F1016.
X12.039 Y28.122 Z32.247
X12.027 Y28.102 Z32.18
X12.008 Y28.069 Z32.12
X11.982 Y28.026 Z32.069
X11.951 Y27.974 Z32.031
X11.917 Y27.916 Z32.008
X11.881 Y27.856 Z32.
G3 X11.659 Y27.102 I1.36 J-0.809
G1 Y23.413
X11.676 Y23.09
X11.722 Y22.74
X11.816 Y22.299
X11.985 Y21.735
X12.253 Y21.047
X12.573 Y20.382
X12.929 Y19.737
X13.315 Y19.108
X13.726 Y18.494
X14.158 Y17.897
X14.611 Y17.315
X15.084 Y16.748
X15.576 Y16.198
X16.086 Y15.665
X16.614 Y15.15
X17.16 Y14.653
X17.722 Y14.175
X18.299 Y13.716
X18.892 Y13.276
X19.499 Y12.856
X20.119 Y12.457
X20.752 Y12.078
X21.398 Y11.721
X21.903 Y11.462
X22.011 Y11.418
X22.124 Y11.39
X22.241 Y11.381
X25.493
G3 X25.67 Y11.955 I-0.011 J0.317
G1 X25.613 Y11.996 Z32.008
X25.559 Y12.036 Z32.031
X25.51 Y12.072 Z32.069
X25.47 Y12.101 Z32.12
X25.439 Y12.124 Z32.18
X25.42 Y12.138 Z32.247
X25.414 Y12.142 Z32.318
G0 Z43.
X12.043 Y24.44
Z32.635
G1 Z32.318 F1016.
X12.039 Y24.433 Z32.247
X12.027 Y24.413 Z32.18
X12.008 Y24.38 Z32.12
X11.982 Y24.337 Z32.069
X11.951 Y24.285 Z32.031
X11.917 Y24.228 Z32.008
X11.881 Y24.167 Z32.
G3 X11.659 Y23.413 I1.36 J-0.809
G1 Y20.731
X11.67 Y20.521
X11.704 Y20.261
X11.774 Y19.933
X11.89 Y19.546
X12.083 Y19.051
X12.384 Y18.431
X12.758 Y17.796
X13.171 Y17.185
X13.614 Y16.594
X14.08 Y16.022
X14.566 Y15.467
X15.072 Y14.93
X15.595 Y14.409
X16.134 Y13.906
X16.69 Y13.421
X17.261 Y12.953
X17.846 Y12.504
X18.445 Y12.073
X19.057 Y11.662
X19.324 Y11.495
X19.447 Y11.432
X19.58 Y11.394
X19.718 Y11.381
X22.241
G3 X22.439 Y11.937 I-0.011 J0.317
G1 X22.418 Y11.955
X12.238 Y20.913
X12.187 Y20.958
G3 X11.659 Y20.731 I-0.21 J-0.238
G1 Y18.551
X11.671 Y18.319
X11.701 Y18.09
X11.761 Y17.811
X11.853 Y17.502
X12.007 Y17.109
X12.23 Y16.648
X12.575 Y16.063
X12.999 Y15.459
X13.46 Y14.883
X13.948 Y14.33
X14.458 Y13.797
X14.986 Y13.282
X15.531 Y12.784
X16.092 Y12.304
X16.666 Y11.842
X17.078 Y11.531
X17.214 Y11.449
X17.366 Y11.398
X17.524 Y11.381
X19.718
G3 X19.917 Y11.936 I-0.011 J0.317
G1 X19.895 Y11.956
X12.238 Y18.733
X12.187 Y18.778
G3 X11.659 Y18.551 I-0.21 J-0.238
G1 Y16.539
X11.67 Y16.333
X11.698 Y16.115
X11.747 Y15.885
X11.831 Y15.607
X11.96 Y15.276
X12.148 Y14.888
X12.425 Y14.418
X12.841 Y13.825
X13.313 Y13.257
X13.816 Y12.718
X14.343 Y12.201
X14.889 Y11.705
X15.062 Y11.558
X15.206 Y11.461
X15.369 Y11.402
X15.542 Y11.381
G3 X15.786 Y11.887 I-0.011 J0.317
G1 X15.729 Y11.964
X12.233 Y16.716
G3 X11.659 Y16.539 I-0.256 J-0.188
G1 Y14.695
X11.671 Y14.474
X11.695 Y14.29
X11.741 Y14.075
X11.82 Y13.811
X11.93 Y13.529
X12.099 Y13.18
X12.334 Y12.781
X12.684 Y12.282
X13.155 Y11.714
X13.257 Y11.609
X13.412 Y11.485
X13.595 Y11.408
X13.791 Y11.381
G3 X14.052 Y11.863 I-0.011 J0.317
G1 X13.987 Y11.97
X12.249 Y14.848
G3 X11.659 Y14.695 I-0.272 J-0.164
G1 Y12.851
X11.667 Y12.701
X11.696 Y12.514
X11.75 Y12.286
X11.827 Y12.049
X11.915 Y11.837
X11.942 Y11.784
X12.058 Y11.618
X12.215 Y11.49
X12.4 Y11.409
X12.601 Y11.381
G3 X12.87 Y11.849 I-0.011 J0.317
G1 X12.803 Y11.973
X12.256 Y12.99
G3 X11.659 Y12.851 I-0.28 J-0.15
G1 Y11.845
X11.661 Y11.677
X11.668 Y11.635
X11.682 Y11.593
X11.702 Y11.551
X11.731 Y11.509
X11.757 Y11.481
X11.788 Y11.452
X11.829 Y11.424
X11.871 Y11.403
X11.913 Y11.39
X11.955 Y11.383
X12.123 Y11.381
X17.524
G3 X17.701 Y11.955 I-0.011 J0.317
G1 X17.644 Y11.996 Z32.008
X17.59 Y12.036 Z32.031
X17.541 Y12.072 Z32.069
X17.501 Y12.101 Z32.12
X17.47 Y12.124 Z32.18
X17.451 Y12.138 Z32.247
X17.445 Y12.142 Z32.318
G0 Z43.
X29.748 Y50.823
Z32.635
G1 Z32.318 F1016.
X29.741 Y50.827 Z32.247
X29.721 Y50.839 Z32.18
X29.689 Y50.858 Z32.12
X29.645 Y50.884 Z32.069
X29.594 Y50.914 Z32.031
X29.536 Y50.949 Z32.008
X29.475 Y50.985 Z32.
G3 X28.722 Y51.206 I-0.809 J-1.36
G1 X24.53
X24.117 Y51.186
X23.727 Y51.134
X23.223 Y51.027
X22.6 Y50.84
X21.913 Y50.572
X21.245 Y50.259
X20.593 Y49.912
X19.958 Y49.538
X19.337 Y49.139
X18.731 Y48.718
X18.141 Y48.276
X17.566 Y47.813
X17.007 Y47.332
X16.465 Y46.831
X15.94 Y46.313
X15.432 Y45.777
X14.943 Y45.224
X14.474 Y44.656
X14.023 Y44.071
X13.593 Y43.472
X13.183 Y42.859
X12.794 Y42.231
X12.428 Y41.591
X12.084 Y40.938
X11.762 Y40.274
X11.723 Y40.187
X11.688 Y40.09
X11.667 Y39.989
X11.659 Y39.887
Y36.242
G3 X12.233 Y36.065 I0.317 J0.011
G1 X12.275 Y36.122 Z32.008
X12.314 Y36.176 Z32.031
X12.35 Y36.225 Z32.069
X12.38 Y36.265 Z32.12
X12.402 Y36.296 Z32.18
X12.416 Y36.315 Z32.247
X12.421 Y36.321 Z32.318
G0 Z43.
X25.557 Y50.823
Z32.635
G1 Z32.318 F1016.
X25.55 Y50.827 Z32.247
X25.53 Y50.839 Z32.18
X25.497 Y50.858 Z32.12
X25.454 Y50.884 Z32.069
X25.402 Y50.914 Z32.031
X25.344 Y50.949 Z32.008
X25.284 Y50.985 Z32.
G3 X24.53 Y51.206 I-0.809 J-1.36
G1 X21.68
X21.416 Y51.193
X21.14 Y51.157
X20.791 Y51.082
X20.378 Y50.958
X19.848 Y50.752
X19.184 Y50.43
X18.548 Y50.056
X17.934 Y49.647
X17.339 Y49.211
X16.761 Y48.752
X16.2 Y48.273
X15.656 Y47.774
X15.128 Y47.258
X14.618 Y46.725
X14.125 Y46.176
X13.651 Y45.612
X13.194 Y45.032
X12.756 Y44.438
X12.337 Y43.831
X11.939 Y43.21
X11.764 Y42.918
X11.707 Y42.799
X11.671 Y42.671
X11.659 Y42.538
Y39.887
G3 X12.214 Y39.687 I0.317 J0.011
G1 X12.234 Y39.709
X22.406 Y51.164
X22.437 Y51.189
X22.476 Y51.202
X22.517 Y51.201
X22.554 Y51.186
X22.585 Y51.159
X22.605 Y51.124
X22.611 Y51.084
X22.603 Y51.044
X22.582 Y51.009
X22.55 Y50.983
X22.512 Y50.97
X22.471
X22.433 Y50.985
G3 X21.68 Y51.206 I-0.809 J-1.36
G1 X19.332
X19.15 Y51.197
X18.916 Y51.166
X18.626 Y51.104
X18.303 Y51.008
X17.888 Y50.846
X17.399 Y50.609
X16.769 Y50.238
X16.166 Y49.814
X15.587 Y49.356
X15.03 Y48.872
X14.492 Y48.367
X13.972 Y47.844
X13.469 Y47.304
X12.983 Y46.749
X12.514 Y46.179
X12.064 Y45.595
X11.8 Y45.231
X11.723 Y45.097
X11.676 Y44.95
X11.659 Y44.797
Y42.538
G3 X12.215 Y42.339 I0.317 J0.011
G1 X12.234 Y42.361
X19.514 Y50.628
X19.56 Y50.679
G3 X19.332 Y51.206 I-0.238 J0.21
G1 X17.321
X17.115 Y51.196
X16.897 Y51.167
X16.653 Y51.115
X16.37 Y51.03
X16.025 Y50.896
X15.623 Y50.701
X15.128 Y50.409
X14.524 Y49.985
X13.955 Y49.516
X13.412 Y49.016
X12.891 Y48.494
X12.39 Y47.952
X11.907 Y47.395
X11.826 Y47.296
X11.735 Y47.154
X11.679 Y46.995
X11.659 Y46.828
G3 X12.169 Y46.586 I0.317 J0.011
G1 X12.242 Y46.642
X17.497 Y50.633
X17.501 Y50.636
G3 X17.321 Y51.206 I-0.192 J0.253
G1 X15.476
X15.226 Y51.194
X15.033 Y51.168
X14.816 Y51.122
X14.549 Y51.042
X14.255 Y50.927
X13.897 Y50.754
X13.482 Y50.51
X12.962 Y50.144
X12.394 Y49.673
X11.889 Y49.192
X11.765 Y49.036
X11.686 Y48.853
X11.659 Y48.655
G3 X12.147 Y48.399 I0.317 J0.011
G1 X12.247 Y48.462
X15.636 Y50.621
G3 X15.476 Y51.206 I-0.171 J0.268
G1 X13.632
X13.465 Y51.198
X13.287 Y51.175
X13.072 Y51.129
X12.826 Y51.055
X12.56 Y50.951
X12.232 Y50.792
X12.024 Y50.67
X11.873 Y50.552
X11.757 Y50.399
X11.684 Y50.222
X11.659 Y50.032
G3 X12.122 Y49.76 I0.317 J0.011
G1 X12.253 Y49.828
X13.766 Y50.607
G3 X13.632 Y51.206 I-0.145 J0.282
G1 X12.123
X12.095
X12.053
X11.902 Y51.167
X11.775 Y51.076
X11.691 Y50.945
X11.66 Y50.793
G3 X12.172 Y50.437 I0.386 J0.01
X12.053 Y51.206 I-0.129 J0.373
G1 X11.955 Y51.205
X11.913 Y51.197
X11.871 Y51.184
X11.829 Y51.164
X11.788 Y51.135
X11.757 Y51.107
X11.731 Y51.078
X11.702 Y51.036
X11.682 Y50.994
X11.668 Y50.952
X11.661 Y50.91
X11.659 Y50.743
Y44.797
G3 X11.957 Y44.491 I0.317 J0.011
G1 X11.977 Y44.49 Z32.001
X12.03 Y44.504 Z32.009
X12.081 Y44.517 Z32.027
X12.128 Y44.529 Z32.054
X12.164 Y44.56 Z32.094
X12.193 Y44.586 Z32.142
X12.215 Y44.605 Z32.197
X12.228 Y44.616 Z32.256
X12.233 Y44.62 Z32.317
G0 Z43.
X31.572 Y31.294
Z34.5
G1 Z29. F51.
Y31.256 F1016.
X31.609 Y31.264
X31.626 Y31.297
X31.615 Y31.333
X31.585 Y31.355
X31.547 Y31.354
X31.514 Y31.337
X31.489 Y31.308
X31.477 Y31.273
X31.479 Y31.235
X31.496 Y31.202
X31.521 Y31.174
X31.554 Y31.155
X31.627 Y31.138
X31.699 Y31.157
X31.756 Y31.206
X31.79 Y31.273
X31.799 Y31.347
X31.781 Y31.42
X31.742 Y31.484
X31.685 Y31.533
X31.549 Y31.596
X31.399 Y31.583
X31.271 Y31.505
X31.184 Y31.383
X31.151 Y31.236
X31.17 Y31.088
X31.236 Y30.953
X31.342 Y30.846
X31.473 Y30.774
X31.619 Y30.742
X31.769 Y30.751
X31.911 Y30.799
X32.037 Y30.882
X32.137 Y30.993
X32.209 Y31.125
X32.249 Y31.269
X32.255 Y31.419
X32.227 Y31.567
X32.172 Y31.706
X32.09 Y31.832
X31.985 Y31.938
X31.861 Y32.024
X31.723 Y32.083
X31.577 Y32.117
X31.428 Y32.124
X31.279 Y32.104
X31.136 Y32.059
X31.003 Y31.99
X30.882 Y31.901
X30.779 Y31.792
X30.694 Y31.668
X30.629 Y31.533
X30.586 Y31.389
X30.565 Y31.241
X30.566 Y31.091
X30.589 Y30.943
X30.634 Y30.799
X30.697 Y30.663
X30.78 Y30.538
X30.878 Y30.425
X30.991 Y30.326
X31.116 Y30.243
X31.252 Y30.178
X31.394 Y30.13
X31.541 Y30.102
X31.691 Y30.092
X31.84 Y30.101
X31.988 Y30.128
X32.131 Y30.173
X32.268 Y30.235
X32.395 Y30.313
X32.514 Y30.406
X32.62 Y30.512
X32.713 Y30.629
X32.792 Y30.757
X32.857 Y30.892
X32.905 Y31.034
X32.938 Y31.18
X32.955 Y31.33
Y31.479
X32.94 Y31.629
X32.908 Y31.775
X32.862 Y31.918
X32.801 Y32.055
X32.726 Y32.185
X32.638 Y32.307
X32.539 Y32.419
X32.429 Y32.52
X32.309 Y32.611
X32.18 Y32.688
X32.045 Y32.754
X31.904 Y32.805
X31.759 Y32.843
X31.611 Y32.866
X31.461 Y32.876
X31.312 Y32.871
X31.163 Y32.852
X31.016 Y32.82
X30.873 Y32.774
X30.735 Y32.715
X30.603 Y32.644
X30.478 Y32.562
X30.361 Y32.468
X30.252 Y32.365
X30.153 Y32.252
X30.065 Y32.131
X29.986 Y32.003
X29.92 Y31.868
X29.865 Y31.729
X29.822 Y31.585
X29.792 Y31.438
X29.774 Y31.289
X29.768 Y31.139
X29.775 Y30.989
X29.794 Y30.841
X29.826 Y30.694
X29.869 Y30.55
X29.925 Y30.407
X29.99 Y30.272
X30.07 Y30.139
X30.158 Y30.014
X30.255 Y29.898
X30.365 Y29.786
X30.48 Y29.687
X30.608 Y29.593
X30.742 Y29.51
X30.88 Y29.44
X31.03 Y29.378
X31.18 Y29.329
X31.335 Y29.293
X31.498 Y29.268
X31.657 Y29.257
X31.82 Y29.258
X31.987 Y29.273
X32.146 Y29.301
X32.307 Y29.342
X32.468 Y29.397
X32.619 Y29.463
X32.766 Y29.542
X32.912 Y29.636
X33.046 Y29.738
X33.172 Y29.851
X33.292 Y29.979
X33.401 Y30.115
X33.498 Y30.257
X33.585 Y30.409
X33.661 Y30.572
X33.723 Y30.739
X33.77 Y30.908
X33.805 Y31.084
X33.826 Y31.267
X33.833 Y31.448
X33.825 Y31.628
X33.801 Y31.81
X33.763 Y31.993
X33.71 Y32.171
X33.644 Y32.344
X33.564 Y32.511
X33.469 Y32.675
X33.359 Y32.832
X33.238 Y32.979
X33.105 Y33.116
X32.963 Y33.242
X32.808 Y33.358
X32.642 Y33.462
X32.467 Y33.553
X32.287 Y33.629
X32.101 Y33.691
X31.911 Y33.737
X31.714 Y33.769
X31.514 Y33.785
X31.312 Y33.784
X31.11 Y33.768
X30.909 Y33.735
X30.712 Y33.686
X30.519 Y33.621
X30.331 Y33.541
X30.148 Y33.445
X29.972 Y33.334
X29.804 Y33.208
X29.646 Y33.068
X29.5 Y32.916
X29.365 Y32.751
X29.244 Y32.576
X29.136 Y32.391
X29.044 Y32.196
X28.967 Y31.995
X28.906 Y31.786
X28.862 Y31.573
X28.835 Y31.356
X28.826 Y31.136
X28.834 Y30.915
X28.86 Y30.694
X28.904 Y30.475
X28.966 Y30.26
X29.045 Y30.048
X29.142 Y29.843
X29.255 Y29.645
X29.384 Y29.457
X29.528 Y29.278
X29.687 Y29.111
X29.86 Y28.956
X30.045 Y28.816
X30.243 Y28.689
X30.45 Y28.579
X30.666 Y28.486
X30.89 Y28.409
X31.121 Y28.351
X31.356 Y28.311
X31.595 Y28.29
X31.836 Y28.289
X32.077 Y28.306
X32.317 Y28.344
X32.554 Y28.4
X32.787 Y28.476
X33.014 Y28.571
X33.234 Y28.684
X33.444 Y28.814
X33.645 Y28.962
X33.833 Y29.127
X34.009 Y29.307
X34.171 Y29.5
X34.316 Y29.708
X34.446 Y29.927
X34.558 Y30.157
X34.651 Y30.396
X34.725 Y30.643
X34.78 Y30.896
X34.814 Y31.154
X34.827 Y31.415
X34.82 Y31.676
X34.791 Y31.938
X34.741 Y32.197
X34.67 Y32.453
X34.578 Y32.704
X34.467 Y32.947
X34.336 Y33.18
X34.185 Y33.404
X34.017 Y33.616
X33.831 Y33.814
X33.629 Y33.998
X33.412 Y34.165
X33.182 Y34.315
X32.94 Y34.447
X32.687 Y34.559
X32.425 Y34.65
X32.154 Y34.721
X31.878 Y34.77
X31.598 Y34.797
X31.316 Y34.801
X31.034 Y34.783
X30.753 Y34.742
X30.475 Y34.678
X30.201 Y34.591
X29.935 Y34.483
X29.677 Y34.353
X29.429 Y34.202
X29.193 Y34.03
X28.971 Y33.84
X28.765 Y33.632
X28.575 Y33.408
X28.403 Y33.168
X28.25 Y32.914
X28.118 Y32.647
X28.007 Y32.37
X27.918 Y32.084
X27.852 Y31.79
X27.81 Y31.491
X27.792 Y31.189
X27.799 Y30.885
X27.83 Y30.581
X27.885 Y30.28
X27.965 Y29.982
X28.068 Y29.692
X28.196 Y29.409
X28.345 Y29.137
X28.517 Y28.876
X28.71 Y28.63
X28.923 Y28.398
X29.155 Y28.184
X29.404 Y27.989
X29.668 Y27.813
X29.947 Y27.659
X30.238 Y27.527
X30.54 Y27.419
X30.851 Y27.335
X31.169 Y27.275
X31.491 Y27.242
X31.816 Y27.234
X32.142 Y27.253
X32.466 Y27.298
X32.786 Y27.369
X33.101 Y27.466
X33.408 Y27.588
X33.706 Y27.735
X33.992 Y27.906
X34.263 Y28.099
X34.52 Y28.315
X34.759 Y28.552
X34.979 Y28.808
X35.178 Y29.081
X35.356 Y29.371
X35.51 Y29.675
X35.639 Y29.991
X35.744 Y30.318
X35.822 Y30.654
X35.872 Y30.995
X35.896 Y31.341
X35.891 Y31.688
X35.859 Y32.036
X35.798 Y32.38
X35.71 Y32.72
X35.595 Y33.053
X35.453 Y33.376
X35.284 Y33.688
X35.091 Y33.986
X34.873 Y34.269
X34.633 Y34.534
X34.372 Y34.78
X34.091 Y35.005
X33.791 Y35.207
X33.476 Y35.385
X33.146 Y35.537
X32.804 Y35.663
X32.452 Y35.762
X32.092 Y35.832
X31.726 Y35.873
X31.358 Y35.884
X30.988 Y35.866
X30.62 Y35.819
X30.256 Y35.741
X29.898 Y35.634
X29.548 Y35.499
X29.21 Y35.335
